(Exported by FreeCAD)
(Post Processor: PathScripts.post.grbl_post)
(Output Time:2020-11-03 13:47:57.805000)
(begin preamble)
G17 G90
G21
(begin operation: Operations)
(compound: Operations)
(Path: Profile_Faces)
(Profile_Faces)
(Compensated Tool Path. Diameter: 6.0)
G0 Z6.0000
G0 X44.7760 Y44.7754
G0 Z4.0000
G1 X44.7760 Y44.7754 Z0.0000 F60.00
G2 X44.5122 Y43.5542 Z0.0000 I-0.5256 J-0.5256 F300.00
G1 X44.4105 Y43.5239 Z0.0000 F300.00
G2 X44.0847 Y44.9744 Z0.0000 I-0.1601 J0.7258 F300.00
G2 X44.7760 Y44.7754 Z0.0000 I0.1658 J-0.7246 F300.00
G0 X44.7760 Y44.7754 Z6.0000
G0 X10.5000 Y10.5000 Z6.0000
G0 X10.5000 Y10.5000 Z4.0000
G1 X10.5000 Y10.5000 Z0.0000 F60.00
G1 X10.5000 Y-10.5000 Z0.0000 F300.00
G1 X-10.5000 Y-10.5000 Z0.0000 F300.00
G1 X-10.5000 Y10.5000 Z0.0000 F300.00
G1 X10.5000 Y10.5000 Z0.0000 F300.00
G0 X10.5000 Y10.5000 Z6.0000
G0 X-43.6168 Y43.8598 Z6.0000
G0 X-43.6168 Y43.8598 Z4.0000
G1 X-43.6168 Y43.8598 Z0.0000 F60.00
G2 X-43.9878 Y43.5542 Z0.0000 I-0.6327 J0.3900 F300.00
G1 X-44.0895 Y43.5239 Z0.0000 F300.00
G2 X-44.4153 Y44.9744 Z0.0000 I-0.1601 J0.7258 F300.00
G2 X-43.6168 Y43.8598 Z0.0000 I0.1658 J-0.7246 F300.00
G0 X-43.6168 Y43.8598 Z6.0000
G0 X-44.2442 Y-43.5069 Z6.0000
G0 X-44.2442 Y-43.5069 Z4.0000
G1 X-44.2442 Y-43.5069 Z0.0000 F60.00
G2 X-43.9878 Y-44.9458 Z0.0000 I-0.0053 J-0.7433 F300.00
G1 X-44.0895 Y-44.9761 Z0.0000 F300.00
G2 X-44.4153 Y-43.5256 Z0.0000 I-0.1601 J0.7258 F300.00
G2 X-44.2442 Y-43.5069 Z0.0000 I0.1658 J-0.7246 F300.00
G0 X-44.2442 Y-43.5069 Z6.0000
G0 X43.5071 Y-44.2440 Z6.0000
G0 X43.5071 Y-44.2440 Z4.0000
G1 X43.5071 Y-44.2440 Z0.0000 F60.00
G2 X44.0847 Y-43.5256 Z0.0000 I0.7433 J-0.0062 F300.00
G2 X44.5122 Y-44.9458 Z0.0000 I0.1658 J-0.7246 F300.00
G1 X44.4105 Y-44.9761 Z0.0000 F300.00
G2 X43.5071 Y-44.2440 Z0.0000 I-0.1601 J0.7258 F300.00
G0 Z6.0000
(Path: Contour)
(Contour)
(Compensated Tool Path. Diameter: 6.0)
G0 Z6.0000
G0 X54.4782 Y54.4782
G0 Z4.0000
G1 X54.4782 Y54.4782 Z0.0000 F60.00
G3 X51.3000 Y55.8000 Z0.0000 I-3.1912 J-3.1912 F300.00
G1 X-51.3000 Y55.8000 Z0.0000 F300.00
G3 X-55.8000 Y51.3000 Z0.0000 I0.0130 J-4.5130 F300.00
G1 X-55.8000 Y-51.3000 Z0.0000 F300.00
G3 X-51.3000 Y-55.8000 Z0.0000 I4.5130 J0.0130 F300.00
G1 X51.3000 Y-55.8000 Z0.0000 F300.00
G3 X55.8000 Y-51.3000 Z0.0000 I-0.0130 J4.5130 F300.00
G1 X55.8000 Y51.3000 Z0.0000 F300.00
G3 X54.4782 Y54.4782 Z0.0000 I-4.5130 J-0.0130 F300.00
G0 Z6.0000
(finish operation: Operations)
(begin postamble)
M5
G17 G90
; M2
