(Exported by FreeCAD)
(Post Processor: PathScripts.post.grbl_post)
(Output Time:2020-11-04 13:48:30.168000)
(begin preamble)
G17 G90
G21
(begin operation: Operations001)
(compound: Operations001)
(Path: Adaptive)
(Adaptive)
(helix to depth: 0.000000)
G0 X1.8870 Y-1.2038 Z6.0000
G0 X1.8870 Y-1.2038 Z4.0000
G1 X1.8870 Y-1.2038 Z1.0000 F120.00
G1 X1.8870 Y-1.2038 Z1.0000 F120.00
G1 X2.0856 Y-0.8126 Z0.9614 F120.00
G1 X2.2040 Y-0.3901 Z0.9228 F120.00
G1 X2.2378 Y0.0474 Z0.8841 F120.00
G1 X2.1855 Y0.4830 Z0.8455 F120.00
G1 X2.0493 Y0.9001 Z0.8069 F120.00
G1 X1.8343 Y1.2826 Z0.7683 F120.00
G1 X1.5488 Y1.6158 Z0.7296 F120.00
G1 X1.2038 Y1.8870 Z0.6910 F120.00
G1 X0.8126 Y2.0856 Z0.6524 F120.00
G1 X0.3901 Y2.2040 Z0.6138 F120.00
G1 X-0.0474 Y2.2378 Z0.5752 F120.00
G1 X-0.4830 Y2.1855 Z0.5365 F120.00
G1 X-0.9001 Y2.0493 Z0.4979 F120.00
G1 X-1.2826 Y1.8343 Z0.4593 F120.00
G1 X-1.6158 Y1.5488 Z0.4207 F120.00
G1 X-1.8870 Y1.2038 Z0.3821 F120.00
G1 X-2.0856 Y0.8126 Z0.3434 F120.00
G1 X-2.2040 Y0.3901 Z0.3048 F120.00
G1 X-2.2378 Y-0.0474 Z0.2662 F120.00
G1 X-2.1855 Y-0.4830 Z0.2276 F120.00
G1 X-2.0493 Y-0.9001 Z0.1889 F120.00
G1 X-1.8343 Y-1.2826 Z0.1503 F120.00
G1 X-1.5488 Y-1.6158 Z0.1117 F120.00
G1 X-1.2038 Y-1.8870 Z0.0731 F120.00
G1 X-0.8126 Y-2.0856 Z0.0345 F120.00
G1 X-0.3901 Y-2.2040 Z0.0000 F900.00
G1 X0.0474 Y-2.2378 Z0.0000 F900.00
G1 X0.4830 Y-2.1855 Z0.0000 F900.00
G1 X0.9001 Y-2.0493 Z0.0000 F900.00
G1 X1.2826 Y-1.8343 Z0.0000 F900.00
G1 X1.6158 Y-1.5488 Z0.0000 F900.00
G1 X1.8870 Y-1.2038 Z0.0000 F900.00
G1 X2.0856 Y-0.8126 Z0.0000 F900.00
G1 X2.2040 Y-0.3901 Z0.0000 F900.00
G1 X2.2378 Y0.0474 Z0.0000 F900.00
G1 X2.1855 Y0.4830 Z0.0000 F900.00
G1 X2.0493 Y0.9001 Z0.0000 F900.00
G1 X1.8343 Y1.2826 Z0.0000 F900.00
G1 X1.5488 Y1.6158 Z0.0000 F900.00
G1 X1.2038 Y1.8870 Z0.0000 F900.00
G1 X0.8126 Y2.0856 Z0.0000 F900.00
G1 X0.3901 Y2.2040 Z0.0000 F900.00
G1 X-0.0474 Y2.2378 Z0.0000 F900.00
G1 X-0.4830 Y2.1855 Z0.0000 F900.00
G1 X-0.9001 Y2.0493 Z0.0000 F900.00
G1 X-1.2826 Y1.8343 Z0.0000 F900.00
G1 X-1.6158 Y1.5488 Z0.0000 F900.00
G1 X-1.8870 Y1.2038 Z0.0000 F900.00
G1 X-2.0856 Y0.8126 Z0.0000 F900.00
G1 X-2.2040 Y0.3901 Z0.0000 F900.00
G1 X-2.2378 Y-0.0474 Z0.0000 F900.00
G1 X-2.1855 Y-0.4830 Z0.0000 F900.00
G1 X-2.0493 Y-0.9001 Z0.0000 F900.00
G1 X-1.8343 Y-1.2826 Z0.0000 F900.00
G1 X-1.5488 Y-1.6158 Z0.0000 F900.00
G1 X-1.2038 Y-1.8870 Z0.0000 F900.00
G1 X-0.8126 Y-2.0856 Z0.0000 F900.00
(Adaptive - depth: 0.000000)
G1 X0.0000 Y-2.2483 F900.00
G1 X0.0759 Y-2.3241 F900.00
G1 X0.1310 Y-2.4138 F900.00
G1 X0.1655 Y-2.5103 F900.00
G1 X0.4000 Y-2.7172 F900.00
G1 X0.6897 Y-2.8414 F900.00
G1 X1.2759 Y-2.9448 F900.00
G1 X1.6828 Y-2.9034 F900.00
G1 X1.9241 Y-2.8414 F900.00
G1 X2.1931 Y-2.7448 F900.00
G1 X2.5379 Y-2.5724 F900.00
G1 X2.9172 Y-2.2897 F900.00
G1 X3.1862 Y-2.0345 F900.00
G1 X3.4414 Y-1.7172 F900.00
G1 X3.6552 Y-1.3586 F900.00
G1 X3.8138 Y-0.9931 F900.00
G1 X3.9241 Y-0.6000 F900.00
G1 X4.0138 Y0.2000 F900.00
G1 X3.9724 Y0.7793 F900.00
G1 X3.8897 Y1.2138 F900.00
G1 X3.7586 Y1.6621 F900.00
G1 X3.5586 Y2.1172 F900.00
G1 X3.3034 Y2.5103 F900.00
G1 X3.0690 Y2.8069 F900.00
G1 X2.7448 Y3.1103 F900.00
G1 X2.4138 Y3.3862 F900.00
G1 X1.9103 Y3.6966 F900.00
G1 X1.4759 Y3.9034 F900.00
G1 X1.0138 Y4.0690 F900.00
G1 X0.5034 Y4.1586 F900.00
G1 X0.1034 Y4.1931 F900.00
G1 X-0.3517 Y4.1793 F900.00
G1 X-0.8000 Y4.0966 F900.00
G1 X-1.2138 Y3.9724 F900.00
G1 X-2.0345 Y3.6207 F900.00
G1 X-2.6621 Y3.2276 F900.00
G1 X-3.0621 Y2.8483 F900.00
G1 X-3.3034 Y2.5586 F900.00
G1 X-3.5172 Y2.2690 F900.00
G1 X-3.7793 Y1.8069 F900.00
G1 X-3.9862 Y1.2897 F900.00
G1 X-4.0966 Y0.8414 F900.00
G1 X-4.1517 Y0.4345 F900.00
G1 X-4.1586 Y-0.0276 F900.00
G1 X-4.1448 Y-0.4621 F900.00
G1 X-4.0276 Y-1.1241 F900.00
G1 X-3.8621 Y-1.6069 F900.00
G1 X-3.7034 Y-1.9862 F900.00
G1 X-3.4483 Y-2.4276 F900.00
G1 X-3.1586 Y-2.8069 F900.00
G1 X-2.5034 Y-3.4897 F900.00
G1 X-1.9448 Y-3.9793 F900.00
G1 X-1.3379 Y-4.4138 F900.00
G1 X-0.7103 Y-4.7034 F900.00
G1 X0.0207 Y-4.9172 F900.00
G1 X0.5931 Y-5.0345 F900.00
G1 X1.3310 Y-5.0759 F900.00
G1 X1.8690 Y-5.0207 F900.00
G1 X2.2483 Y-4.9379 F900.00
G1 X2.6483 Y-4.8276 F900.00
G1 X3.1931 Y-4.6138 F900.00
G1 X3.7172 Y-4.3310 F900.00
G1 X4.1379 Y-4.0207 F900.00
G1 X4.4621 Y-3.7379 F900.00
G1 X4.8000 Y-3.3586 F900.00
G1 X5.1103 Y-2.9793 F900.00
G1 X5.4690 Y-2.4000 F900.00
G1 X5.7172 Y-1.9034 F900.00
G1 X5.9310 Y-1.3793 F900.00
G1 X6.0897 Y-0.8069 F900.00
G1 X6.1586 Y-0.2414 F900.00
G1 X6.1793 Y0.2000 F900.00
G1 X6.1793 Y0.7172 F900.00
G1 X6.0759 Y1.4414 F900.00
G1 X5.9586 Y1.9724 F900.00
G1 X5.7862 Y2.5310 F900.00
G1 X5.5448 Y3.0897 F900.00
G1 X5.2690 Y3.6000 F900.00
G1 X4.9103 Y4.0759 F900.00
G1 X4.6207 Y4.4069 F900.00
G1 X3.8414 Y5.1103 F900.00
G1 X3.2207 Y5.5310 F900.00
G1 X2.6828 Y5.8414 F900.00
G1 X2.0759 Y6.0897 F900.00
G1 X1.6069 Y6.2414 F900.00
G1 X1.0414 Y6.3655 F900.00
G1 X0.4759 Y6.4207 F900.00
G1 X-0.0621 Y6.4276 F900.00
G1 X-1.1655 Y6.3172 F900.00
G1 X-1.8897 Y6.1448 F900.00
G1 X-2.4966 Y5.9517 F900.00
G1 X-3.0966 Y5.6621 F900.00
G1 X-3.5103 Y5.4276 F900.00
G1 X-3.9793 Y5.0897 F900.00
G1 X-4.4000 Y4.7103 F900.00
G1 X-4.7655 Y4.3172 F900.00
G1 X-5.4276 Y3.4207 F900.00
G1 X-5.7931 Y2.7724 F900.00
G1 X-6.0690 Y2.1862 F900.00
G1 X-6.2552 Y1.5172 F900.00
G1 X-6.3517 Y1.0828 F900.00
G1 X-6.4138 Y0.5103 F900.00
G1 X-6.4414 Y-0.0276 F900.00
G1 X-6.4000 Y-0.7448 F900.00
G1 X-6.3103 Y-1.3448 F900.00
G1 X-6.1793 Y-1.9379 F900.00
G1 X-5.9793 Y-2.5448 F900.00
G1 X-5.7379 Y-3.1172 F900.00
G1 X-5.4414 Y-3.6690 F900.00
G1 X-5.0966 Y-4.1931 F900.00
G1 X-4.7103 Y-4.6897 F900.00
G1 X-4.2828 Y-5.1448 F900.00
G1 X-3.8138 Y-5.5655 F900.00
G1 X-3.3103 Y-5.9448 F900.00
G1 X-2.2345 Y-6.5931 F900.00
G1 X-1.5517 Y-6.8966 F900.00
G1 X-0.8897 Y-7.1379 F900.00
G1 X-0.1724 Y-7.3034 F900.00
G1 X0.3586 Y-7.3931 F900.00
G1 X1.0000 Y-7.4414 F900.00
G1 X1.6207 Y-7.4276 F900.00
G1 X2.2138 Y-7.3655 F900.00
G1 X2.8276 Y-7.2414 F900.00
G1 X3.4207 Y-7.0621 F900.00
G1 X3.9931 Y-6.8345 F900.00
G1 X4.5448 Y-6.5586 F900.00
G1 X5.0690 Y-6.2345 F900.00
G1 X5.5655 Y-5.8621 F900.00
G1 X6.0276 Y-5.4483 F900.00
G1 X6.8621 Y-4.5310 F900.00
G1 X7.2966 Y-3.9241 F900.00
G1 X7.6690 Y-3.3172 F900.00
G1 X7.9793 Y-2.6414 F900.00
G1 X8.1655 Y-2.1517 F900.00
G1 X8.3448 Y-1.5241 F900.00
G1 X8.4552 Y-0.9034 F900.00
G1 X8.5586 Y0.3034 F900.00
G1 X8.5310 Y1.0414 F900.00
G1 X8.4621 Y1.7379 F900.00
G1 X8.3448 Y2.4690 F900.00
G1 X8.1310 Y3.1793 F900.00
G1 X7.9379 Y3.7103 F900.00
G1 X7.6483 Y4.3379 F900.00
G1 X7.3103 Y4.9172 F900.00
G1 X6.9517 Y5.4483 F900.00
G1 X6.5310 Y5.9655 F900.00
G1 X6.0690 Y6.4414 F900.00
G1 X5.5724 Y6.8690 F900.00
G1 X5.0414 Y7.2621 F900.00
G1 X4.4759 Y7.6069 F900.00
G1 X3.2897 Y8.1862 F900.00
G1 X2.5862 Y8.4345 F900.00
G1 X1.8690 Y8.6414 F900.00
G1 X1.1310 Y8.7655 F900.00
G1 X0.5586 Y8.8207 F900.00
G1 X-0.1241 Y8.8345 F900.00
G1 X-0.7931 Y8.7862 F900.00
G1 X-2.0897 Y8.5931 F900.00
G1 X-2.8069 Y8.4069 F900.00
G1 X-3.5172 Y8.1793 F900.00
G1 X-4.1862 Y7.8552 F900.00
G1 X-4.6414 Y7.6069 F900.00
G1 X-5.2207 Y7.2207 F900.00
G1 X-5.7310 Y6.8000 F900.00
G1 X-6.1793 Y6.3793 F900.00
G1 X-7.0345 Y5.4000 F900.00
G1 X-7.4621 Y4.7862 F900.00
G1 X-7.8483 Y4.1448 F900.00
G1 X-8.1655 Y3.4690 F900.00
G1 X-8.3931 Y2.8897 F900.00
G1 X-8.6069 Y2.2000 F900.00
G1 X-8.7517 Y1.5103 F900.00
G1 X-8.8483 Y0.8414 F900.00
G1 X-8.8897 Y0.1448 F900.00
G1 X-8.8759 Y-0.5448 F900.00
G1 X-8.8069 Y-1.2276 F900.00
G1 X-8.5448 Y-2.5793 F900.00
G1 X-8.3241 Y-3.2897 F900.00
G1 X-8.0621 Y-3.9862 F900.00
G1 X-7.7586 Y-4.6621 F900.00
G1 X-7.3655 Y-5.2966 F900.00
G1 X-7.0414 Y-5.7724 F900.00
G1 X-6.5793 Y-6.3379 F900.00
G1 X-6.0897 Y-6.8414 F900.00
G1 X-5.0621 Y-7.7310 F900.00
G1 X-4.4483 Y-8.1517 F900.00
G1 X-3.8138 Y-8.5379 F900.00
G1 X-3.1586 Y-8.8897 F900.00
G1 X-2.4759 Y-9.1931 F900.00
G1 X-1.7724 Y-9.4483 F900.00
G1 X-1.0552 Y-9.6621 F900.00
G1 X-0.3241 Y-9.8276 F900.00
G1 X0.4138 Y-9.9103 F900.00
G1 X1.0138 Y-9.9448 F900.00
G1 X1.7517 Y-9.9241 F900.00
G1 X2.4621 Y-9.8414 F900.00
G1 X3.1310 Y-9.7172 F900.00
G1 X3.8138 Y-9.5310 F900.00
G1 X4.4759 Y-9.2966 F900.00
G1 X5.1103 Y-9.0138 F900.00
G1 X6.3310 Y-8.3241 F900.00
G1 X6.9379 Y-7.8897 F900.00
G1 X7.5172 Y-7.4207 F900.00
G1 X8.0690 Y-6.9241 F900.00
G1 X8.5862 Y-6.3862 F900.00
G1 X9.0690 Y-5.8207 F900.00
G1 X9.4759 Y-5.2000 F900.00
G1 X9.7724 Y-4.6966 F900.00
G1 X10.0897 Y-4.0345 F900.00
G1 X10.3379 Y-3.3724 F900.00
G1 X10.7379 Y-2.0552 F900.00
G1 X10.8759 Y-1.3241 F900.00
G1 X10.9793 Y-0.5862 F900.00
G1 X11.0552 Y0.1517 F900.00
G1 X11.0759 Y0.8897 F900.00
G1 X11.0621 Y1.6276 F900.00
G1 X10.9517 Y2.3586 F900.00
G1 X10.8414 Y2.9448 F900.00
G1 X10.6483 Y3.6621 F900.00
G1 X10.3931 Y4.3586 F900.00
G1 X10.1103 Y5.0069 F900.00
G1 X9.7586 Y5.6621 F900.00
G1 X8.9655 Y6.8897 F900.00
G1 X8.4966 Y7.4690 F900.00
G1 X8.0000 Y8.0207 F900.00
G1 X7.4759 Y8.5517 F900.00
G1 X6.9103 Y9.0414 F900.00
G1 X6.3241 Y9.4966 F900.00
G1 X5.6828 Y9.8759 F900.00
G1 X5.1655 Y10.1517 F900.00
G1 X3.8069 Y10.7241 F900.00
G1 X3.0966 Y10.9448 F900.00
G1 X2.3724 Y11.1241 F900.00
G1 X1.6414 Y11.2690 F900.00
G1 X0.8966 Y11.3586 F900.00
G1 X0.1517 Y11.4069 F900.00
G1 X-0.5862 Y11.4138 F900.00
G1 X-1.3241 Y11.3724 F900.00
G1 X-2.0621 Y11.2897 F900.00
G1 X-2.7862 Y11.1241 F900.00
G1 X-3.4069 Y10.9517 F900.00
G1 X-4.1034 Y10.6966 F900.00
G1 X-4.7793 Y10.3862 F900.00
G1 X-5.4207 Y10.0414 F900.00
G1 X-6.6759 Y9.2414 F900.00
G1 X-7.2621 Y8.7793 F900.00
G1 X-7.8207 Y8.2897 F900.00
G1 X-8.3655 Y7.7793 F900.00
G1 X-8.8690 Y7.2345 F900.00
G1 X-9.3103 Y6.6345 F900.00
G1 X-9.6828 Y6.0966 F900.00
G1 X-10.0552 Y5.4483 F900.00
G1 X-10.3793 Y4.7724 F900.00
G1 X-10.6621 Y4.0828 F900.00
G1 X-10.8966 Y3.3724 F900.00
G1 X-11.0759 Y2.6483 F900.00
G1 X-11.2069 Y1.9103 F900.00
G1 X-11.3655 Y0.4207 F900.00
G1 X-11.3724 Y-0.3172 F900.00
G1 X-11.3448 Y-1.0552 F900.00
G1 X-11.2897 Y-1.7931 F900.00
G1 X-11.1793 Y-2.5241 F900.00
G1 X-11.0345 Y-3.2552 F900.00
G1 X-10.8552 Y-3.9724 F900.00
G1 X-10.5862 Y-4.6621 F900.00
G1 X-10.3379 Y-5.2414 F900.00
G1 X-10.0000 Y-5.9034 F900.00
G1 X-9.6069 Y-6.5310 F900.00
G1 X-9.1793 Y-7.1379 F900.00
G1 X-8.2276 Y-8.2828 F900.00
G1 X-7.7034 Y-8.8138 F900.00
G1 X-7.1517 Y-9.3172 F900.00
G1 X-6.5862 Y-9.8000 F900.00
G1 X-5.9862 Y-10.2414 F900.00
G1 X-5.3655 Y-10.6552 F900.00
G1 X-4.7241 Y-11.0414 F900.00
G1 X-4.0621 Y-11.3862 F900.00
G1 X-3.3862 Y-11.6966 F900.00
G1 X-2.6828 Y-11.9379 F900.00
G1 X-2.0069 Y-12.1448 F900.00
G1 X-1.2759 Y-12.3103 F900.00
G1 X-0.5379 Y-12.4207 F900.00
G1 X0.2000 Y-12.4897 F900.00
G1 X0.9379 Y-12.5103 F900.00
G1 X1.6759 Y-12.4828 F900.00
G1 X2.4138 Y-12.4069 F900.00
G1 X3.1448 Y-12.2828 F900.00
G1 X3.8690 Y-12.1103 F900.00
G1 X5.2897 Y-11.6690 F900.00
G1 X5.9793 Y-11.3862 F900.00
G1 X6.6552 Y-11.0759 F900.00
G1 X7.3172 Y-10.7379 F900.00
G1 X7.9586 Y-10.3586 F900.00
G1 X8.5793 Y-9.9517 F900.00
G1 X9.1586 Y-9.4828 F900.00
G1 X9.6966 Y-9.0069 F900.00
G1 X10.2207 Y-8.4828 F900.00
G1 X10.7034 Y-7.9172 F900.00
G1 X11.1586 Y-7.3241 F900.00
G1 X11.5724 Y-6.7034 F900.00
G1 X11.9448 Y-6.0552 F900.00
G1 X12.2759 Y-5.3862 F900.00
G1 X12.5655 Y-4.6966 F900.00
G1 X13.0621 Y-3.2897 F900.00
G1 X13.2483 Y-2.5655 F900.00
G1 X13.4069 Y-1.8345 F900.00
G1 X13.5379 Y-1.0966 F900.00
G1 X13.6276 Y-0.3517 F900.00
G1 X13.6828 Y0.3862 F900.00
G1 X13.7103 Y1.1241 F900.00
G1 X13.5724 Y2.5586 F900.00
G1 X13.4483 Y3.2897 F900.00
G1 X13.2621 Y4.0069 F900.00
G1 X13.0414 Y4.7172 F900.00
G1 X12.7793 Y5.4138 F900.00
G1 X12.4690 Y6.0897 F900.00
G1 X12.1172 Y6.7448 F900.00
G1 X11.3310 Y8.0138 F900.00
G1 X10.8897 Y8.6138 F900.00
G1 X9.9379 Y9.7586 F900.00
G1 X9.4207 Y10.2897 F900.00
G1 X8.8759 Y10.8000 F900.00
G1 X8.2828 Y11.2552 F900.00
G1 X7.6966 Y11.6759 F900.00
G1 X7.0621 Y12.0690 F900.00
G1 X6.4000 Y12.4138 F900.00
G1 X5.7241 Y12.7310 F900.00
G1 X4.3310 Y13.2621 F900.00
G1 X3.6138 Y13.4759 F900.00
G1 X2.8897 Y13.6552 F900.00
G1 X2.1586 Y13.8069 F900.00
G1 X1.4207 Y13.9172 F900.00
G1 X0.6759 Y14.0000 F900.00
G1 X-0.0621 Y14.0483 F900.00
G1 X-0.8000 Y14.0552 F900.00
G1 X-1.5379 Y14.0276 F900.00
G1 X-2.9241 Y13.8000 F900.00
G1 X-3.6414 Y13.6207 F900.00
G1 X-4.3448 Y13.3793 F900.00
G1 X-5.7241 Y12.8276 F900.00
G1 X-6.3862 Y12.4897 F900.00
G1 X-7.0345 Y12.1241 F900.00
G1 X-7.6690 Y11.7379 F900.00
G1 X-8.2759 Y11.3103 F900.00
G1 X-8.8621 Y10.8552 F900.00
G1 X-9.4276 Y10.3724 F900.00
G1 X-9.9655 Y9.8621 F900.00
G1 X-10.4828 Y9.3241 F900.00
G1 X-10.9724 Y8.7586 F900.00
G1 X-11.4345 Y8.1724 F900.00
G1 X-11.8621 Y7.5655 F900.00
G1 X-12.2621 Y6.9379 F900.00
G1 X-12.8966 Y5.6138 F900.00
G1 X-13.1655 Y4.9172 F900.00
G1 X-13.3793 Y4.2000 F900.00
G1 X-13.5586 Y3.4759 F900.00
G1 X-13.8276 Y2.0000 F900.00
G1 X-13.8966 Y1.2552 F900.00
G1 X-13.9379 Y0.5103 F900.00
G1 X-13.9586 Y-0.2276 F900.00
G1 X-13.9379 Y-0.9655 F900.00
G1 X-13.8897 Y-1.7034 F900.00
G1 X-13.8069 Y-2.4414 F900.00
G1 X-13.6897 Y-3.1724 F900.00
G1 X-13.5379 Y-3.8966 F900.00
G1 X-13.3586 Y-4.6138 F900.00
G1 X-13.1448 Y-5.3241 F900.00
G1 X-12.5655 Y-6.6345 F900.00
G1 X-12.2138 Y-7.2897 F900.00
G1 X-11.8138 Y-7.9172 F900.00
G1 X-10.9448 Y-9.1310 F900.00
G1 X-10.4621 Y-9.6966 F900.00
G1 X-9.9586 Y-10.2414 F900.00
G1 X-9.4345 Y-10.7724 F900.00
G1 X-8.8828 Y-11.2690 F900.00
G1 X-8.3103 Y-11.7448 F900.00
G1 X-7.7172 Y-12.1931 F900.00
G1 X-7.1034 Y-12.6138 F900.00
G1 X-6.4690 Y-13.0069 F900.00
G1 X-5.8207 Y-13.3724 F900.00
G1 X-5.1517 Y-13.7034 F900.00
G1 X-4.4690 Y-14.0069 F900.00
G1 X-3.7724 Y-14.2828 F900.00
G1 X-3.0621 Y-14.5241 F900.00
G1 X-2.3448 Y-14.7310 F900.00
G1 X-1.6207 Y-14.9034 F900.00
G1 X-0.8828 Y-15.0069 F900.00
G1 X-0.1379 Y-15.0897 F900.00
G1 X0.6000 Y-15.1241 F900.00
G1 X1.3379 Y-15.1034 F900.00
G1 X2.0759 Y-15.0483 F900.00
G1 X3.5517 Y-14.8483 F900.00
G1 X4.2759 Y-14.6897 F900.00
G1 X4.9931 Y-14.5034 F900.00
G1 X5.7034 Y-14.2966 F900.00
G1 X6.4000 Y-14.0483 F900.00
G1 X7.0897 Y-13.7724 F900.00
G1 X7.7655 Y-13.4690 F900.00
G1 X8.4276 Y-13.1310 F900.00
G1 X9.0759 Y-12.7655 F900.00
G1 X9.7034 Y-12.3724 F900.00
G1 X10.3172 Y-11.9517 F900.00
G1 X10.9103 Y-11.5034 F900.00
G1 X11.4552 Y-10.9931 F900.00
G1 X11.9862 Y-10.4690 F900.00
G1 X12.4828 Y-9.9172 F900.00
G1 X12.9379 Y-9.3241 F900.00
G1 X13.3655 Y-8.7172 F900.00
G1 X14.1379 Y-7.4414 F900.00
G1 X14.4759 Y-6.7724 F900.00
G1 X14.7862 Y-6.0897 F900.00
G1 X15.0690 Y-5.4000 F900.00
G1 X15.5724 Y-3.9931 F900.00
G1 X15.7793 Y-3.2759 F900.00
G1 X16.1379 Y-1.8276 F900.00
G1 X16.3241 Y-0.3379 F900.00
G1 X16.3724 Y0.4000 F900.00
G1 X16.3724 Y1.1379 F900.00
G1 X16.3448 Y1.8759 F900.00
G1 X16.2828 Y2.6138 F900.00
G1 X16.1793 Y3.3517 F900.00
G1 X16.0414 Y4.0828 F900.00
G1 X15.8690 Y4.8069 F900.00
G1 X15.6276 Y5.5103 F900.00
G1 X15.3586 Y6.2069 F900.00
G1 X14.7310 Y7.5517 F900.00
G1 X14.3655 Y8.2000 F900.00
G1 X13.9724 Y8.8276 F900.00
G1 X13.5586 Y9.4483 F900.00
G1 X12.6690 Y10.6414 F900.00
G1 X12.1931 Y11.2138 F900.00
G1 X11.6966 Y11.7724 F900.00
G1 X11.1655 Y12.2897 F900.00
G1 X10.6207 Y12.7931 F900.00
G1 X10.0483 Y13.2759 F900.00
G1 X9.4552 Y13.7241 F900.00
G1 X8.8207 Y14.1172 F900.00
G1 X8.1724 Y14.4897 F900.00
G1 X6.8345 Y15.1448 F900.00
G1 X6.1448 Y15.4276 F900.00
G1 X5.4414 Y15.6828 F900.00
G1 X4.7310 Y15.9172 F900.00
G1 X4.0069 Y16.1103 F900.00
G1 X3.2759 Y16.2759 F900.00
G1 X2.5379 Y16.4138 F900.00
G1 X1.8000 Y16.5172 F900.00
G1 X1.0552 Y16.5862 F900.00
G1 X0.3103 Y16.6276 F900.00
G1 X-0.4276 Y16.6345 F900.00
G1 X-1.1655 Y16.6069 F900.00
G1 X-1.9034 Y16.5517 F900.00
G1 X-2.6414 Y16.4621 F900.00
G1 X-3.3724 Y16.3448 F900.00
G1 X-4.0966 Y16.1931 F900.00
G1 X-4.8138 Y16.0069 F900.00
G1 X-5.5241 Y15.7931 F900.00
G1 X-6.2276 Y15.5517 F900.00
G1 X-6.9172 Y15.2759 F900.00
G1 X-7.5793 Y14.9379 F900.00
G1 X-8.2345 Y14.5793 F900.00
G1 X-8.8621 Y14.1862 F900.00
G1 X-10.0690 Y13.3241 F900.00
G1 X-10.6414 Y12.8483 F900.00
G1 X-11.1931 Y12.3448 F900.00
G1 X-11.7310 Y11.8276 F900.00
G1 X-12.2414 Y11.2828 F900.00
G1 X-12.7310 Y10.7172 F900.00
G1 X-13.1931 Y10.1379 F900.00
G1 X-13.6276 Y9.5310 F900.00
G1 X-14.0414 Y8.9103 F900.00
G1 X-14.4276 Y8.2690 F900.00
G1 X-14.7862 Y7.6138 F900.00
G1 X-15.1172 Y6.9448 F900.00
G1 X-15.4207 Y6.2621 F900.00
G1 X-15.6966 Y5.5655 F900.00
G1 X-15.9379 Y4.8621 F900.00
G1 X-16.1517 Y4.1448 F900.00
G1 X-16.2966 Y3.4138 F900.00
G1 X-16.4207 Y2.6759 F900.00
G1 X-16.5793 Y1.1862 F900.00
G1 X-16.6069 Y0.4414 F900.00
G1 X-16.6069 Y-0.2966 F900.00
G1 X-16.5862 Y-1.0345 F900.00
G1 X-16.5241 Y-1.7724 F900.00
G1 X-16.3586 Y-3.2483 F900.00
G1 X-16.0966 Y-4.7103 F900.00
G1 X-15.6828 Y-6.1379 F900.00
G1 X-15.4000 Y-6.8276 F900.00
G1 X-15.0897 Y-7.5034 F900.00
G1 X-14.7448 Y-8.1586 F900.00
G1 X-13.9724 Y-9.4345 F900.00
G1 X-13.5448 Y-10.0414 F900.00
G1 X-12.6207 Y-11.2138 F900.00
G1 X-12.1241 Y-11.7655 F900.00
G1 X-11.6069 Y-12.3034 F900.00
G1 X-11.0690 Y-12.8207 F900.00
G1 X-10.5103 Y-13.3103 F900.00
G1 X-9.9310 Y-13.7793 F900.00
G1 X-9.3310 Y-14.2276 F900.00
G1 X-8.7172 Y-14.6483 F900.00
G1 X-8.0828 Y-15.0483 F900.00
G1 X-6.7931 Y-15.8000 F900.00
G1 X-5.4621 Y-16.4759 F900.00
G1 X-4.0759 Y-17.0276 F900.00
G1 X-3.3655 Y-17.2621 F900.00
G1 X-2.6483 Y-17.4621 F900.00
G1 X-1.2138 Y-17.6897 F900.00
G1 X0.2690 Y-17.7862 F900.00
G1 X1.0069 Y-17.7793 F900.00
G1 X1.7448 Y-17.7379 F900.00
G1 X2.4828 Y-17.6690 F900.00
G1 X3.9517 Y-17.4690 F900.00
G1 X4.6828 Y-17.3241 F900.00
G1 X6.1241 Y-16.9793 F900.00
G1 X6.8345 Y-16.7655 F900.00
G1 X7.5379 Y-16.5310 F900.00
G1 X8.2345 Y-16.2759 F900.00
G1 X9.5724 Y-15.6207 F900.00
G1 X10.2207 Y-15.2552 F900.00
G1 X10.8483 Y-14.8552 F900.00
G1 X11.4621 Y-14.4345 F900.00
G1 X12.0483 Y-13.9793 F900.00
G1 X12.6138 Y-13.4966 F900.00
G1 X13.1586 Y-12.9862 F900.00
G1 X14.1931 Y-11.9172 F900.00
G1 X15.1448 Y-10.7724 F900.00
G1 X15.6000 Y-10.1793 F900.00
G1 X16.0276 Y-9.5655 F900.00
G1 X16.7517 Y-8.2621 F900.00
G1 X17.3931 Y-6.9103 F900.00
G1 X17.6690 Y-6.2207 F900.00
G1 X17.9241 Y-5.5172 F900.00
G1 X18.1586 Y-4.8069 F900.00
G1 X18.3586 Y-4.0897 F900.00
G1 X18.5379 Y-3.3655 F900.00
G1 X18.6897 Y-2.6345 F900.00
G1 X18.8138 Y-1.8966 F900.00
G1 X18.9103 Y-1.1586 F900.00
G1 X18.9793 Y-0.4138 F900.00
G1 X19.0207 Y0.3241 F900.00
G1 X19.0414 Y1.0621 F900.00
G1 X19.0345 Y1.8000 F900.00
G1 X19.0000 Y2.5379 F900.00
G1 X18.9379 Y3.2759 F900.00
G1 X18.6621 Y4.7310 F900.00
G1 X18.4759 Y5.4483 F900.00
G1 X18.2414 Y6.1517 F900.00
G1 X17.9793 Y6.8483 F900.00
G1 X17.3862 Y8.2138 F900.00
G1 X17.0483 Y8.8759 F900.00
G1 X16.3172 Y10.1655 F900.00
G1 X15.9103 Y10.7862 F900.00
G1 X15.4828 Y11.3931 F900.00
G1 X15.0345 Y11.9862 F900.00
G1 X14.5655 Y12.5655 F900.00
G1 X14.0759 Y13.1241 F900.00
G1 X13.5655 Y13.6690 F900.00
G1 X13.0345 Y14.1931 F900.00
G1 X12.4897 Y14.6966 F900.00
G1 X11.9241 Y15.1862 F900.00
G1 X11.3448 Y15.6552 F900.00
G1 X10.0966 Y16.4690 F900.00
G1 X9.4483 Y16.8345 F900.00
G1 X8.1103 Y17.4966 F900.00
G1 X7.4207 Y17.7862 F900.00
G1 X6.0207 Y18.3103 F900.00
G1 X5.3034 Y18.5310 F900.00
G1 X4.5793 Y18.7241 F900.00
G1 X3.8552 Y18.8966 F900.00
G1 X3.1241 Y19.0414 F900.00
G1 X2.3862 Y19.1586 F900.00
G1 X1.6414 Y19.2483 F900.00
G1 X0.8966 Y19.3103 F900.00
G1 X0.1517 Y19.3517 F900.00
G1 X-0.5862 Y19.3655 F900.00
G1 X-1.3241 Y19.3517 F900.00
G1 X-2.0621 Y19.3103 F900.00
G1 X-2.8000 Y19.2414 F900.00
G1 X-4.2621 Y18.9655 F900.00
G1 X-5.6966 Y18.6000 F900.00
G1 X-6.4069 Y18.3793 F900.00
G1 X-7.1103 Y18.1310 F900.00
G1 X-7.7931 Y17.8414 F900.00
G1 X-8.4690 Y17.5310 F900.00
G1 X-9.1310 Y17.1862 F900.00
G1 X-9.7724 Y16.8069 F900.00
G1 X-10.4000 Y16.4069 F900.00
G1 X-11.0069 Y15.9793 F900.00
G1 X-11.5931 Y15.5241 F900.00
G1 X-12.7310 Y14.5655 F900.00
G1 X-13.2690 Y14.0552 F900.00
G1 X-14.3103 Y12.9931 F900.00
G1 X-14.8069 Y12.4345 F900.00
G1 X-15.2897 Y11.8621 F900.00
G1 X-15.7517 Y11.2759 F900.00
G1 X-16.5724 Y10.0276 F900.00
G1 X-16.9448 Y9.3793 F900.00
G1 X-17.2828 Y8.7103 F900.00
G1 X-17.6000 Y8.0345 F900.00
G1 X-17.8828 Y7.3448 F900.00
G1 X-18.1310 Y6.6414 F900.00
G1 X-18.3517 Y5.9310 F900.00
G1 X-18.7448 Y4.4897 F900.00
G1 X-18.9034 Y3.7586 F900.00
G1 X-19.1724 Y2.2897 F900.00
G1 X-19.2690 Y1.5517 F900.00
G1 X-19.3241 Y0.0621 F900.00
G1 X-19.2897 Y-1.4138 F900.00
G1 X-19.2345 Y-2.1517 F900.00
G1 X-19.0552 Y-3.6276 F900.00
G1 X-18.9310 Y-4.3586 F900.00
G1 X-18.7793 Y-5.0828 F900.00
G1 X-18.6069 Y-5.8069 F900.00
G1 X-18.4069 Y-6.5241 F900.00
G1 X-17.8759 Y-7.9103 F900.00
G1 X-17.5724 Y-8.5862 F900.00
G1 X-17.2276 Y-9.2414 F900.00
G1 X-16.8621 Y-9.8897 F900.00
G1 X-16.4621 Y-10.5172 F900.00
G1 X-15.6207 Y-11.7448 F900.00
G1 X-14.6966 Y-12.9103 F900.00
G1 X-14.2207 Y-13.4828 F900.00
G1 X-13.2000 Y-14.5655 F900.00
G1 X-12.6690 Y-15.0897 F900.00
G1 X-11.5103 Y-16.0345 F900.00
G1 X-10.9103 Y-16.4759 F900.00
G1 X-10.2828 Y-16.8828 F900.00
G1 X-9.0138 Y-17.6690 F900.00
G1 X-7.0345 Y-18.7103 F900.00
G1 X-5.6759 Y-19.3172 F900.00
G1 X-4.9862 Y-19.6000 F900.00
G1 X-3.5517 Y-20.0276 F900.00
G1 X-2.8207 Y-20.1655 F900.00
G1 X-2.0828 Y-20.2759 F900.00
G1 X-0.5931 Y-20.4207 F900.00
G1 X0.1448 Y-20.4414 F900.00
G1 X0.8828 Y-20.4345 F900.00
G1 X1.6207 Y-20.4069 F900.00
G1 X3.0966 Y-20.2966 F900.00
G1 X3.8345 Y-20.2069 F900.00
G1 X5.2966 Y-19.9793 F900.00
G1 X6.0207 Y-19.8345 F900.00
G1 X6.7448 Y-19.6690 F900.00
G1 X8.1655 Y-19.2207 F900.00
G1 X8.8621 Y-18.9655 F900.00
G1 X9.5448 Y-18.6759 F900.00
G1 X10.2207 Y-18.3655 F900.00
G1 X10.8828 Y-18.0276 F900.00
G1 X11.5310 Y-17.6621 F900.00
G1 X12.1655 Y-17.2690 F900.00
G1 X12.7793 Y-16.8552 F900.00
G1 X13.3793 Y-16.4138 F900.00
G1 X13.9655 Y-15.9517 F900.00
G1 X14.5310 Y-15.4690 F900.00
G1 X15.0759 Y-14.9586 F900.00
G1 X15.6000 Y-14.4276 F900.00
G1 X16.1034 Y-13.8759 F900.00
G1 X16.5862 Y-13.3103 F900.00
G1 X17.0483 Y-12.7241 F900.00
G1 X17.4828 Y-12.1172 F900.00
G1 X18.3172 Y-10.8828 F900.00
G1 X19.4414 Y-8.9448 F900.00
G1 X19.7793 Y-8.2828 F900.00
G1 X20.3517 Y-6.9034 F900.00
G1 X20.6000 Y-6.2000 F900.00
G1 X20.8138 Y-5.4828 F900.00
G1 X21.0069 Y-4.7586 F900.00
G1 X21.1724 Y-4.0276 F900.00
G1 X21.3103 Y-3.2897 F900.00
G1 X21.5448 Y-1.8138 F900.00
G1 X21.6897 Y-0.3241 F900.00
G1 X21.7448 Y0.4138 F900.00
G1 X21.7724 Y1.1517 F900.00
G1 X21.7241 Y2.6276 F900.00
G1 X21.6690 Y3.3655 F900.00
G1 X21.5793 Y4.1034 F900.00
G1 X21.2621 Y5.5517 F900.00
G1 X21.0552 Y6.2621 F900.00
G1 X20.5655 Y7.6621 F900.00
G1 X20.2759 Y8.3448 F900.00
G1 X19.6414 Y9.6897 F900.00
G1 X18.9379 Y10.9931 F900.00
G1 X18.1655 Y12.2690 F900.00
G1 X17.7655 Y12.8966 F900.00
G1 X17.3448 Y13.5103 F900.00
G1 X16.3931 Y14.6552 F900.00
G1 X15.8897 Y15.2069 F900.00
G1 X15.3586 Y15.7310 F900.00
G1 X14.8138 Y16.2414 F900.00
G1 X14.2483 Y16.7241 F900.00
G1 X13.0828 Y17.6621 F900.00
G1 X11.8621 Y18.5172 F900.00
G1 X11.2414 Y18.9310 F900.00
G1 X10.6069 Y19.3241 F900.00
G1 X9.2690 Y19.9862 F900.00
G1 X8.5793 Y20.2828 F900.00
G1 X7.1655 Y20.7655 F900.00
G1 X6.4690 Y21.0276 F900.00
G1 X4.3172 Y21.6345 F900.00
G1 X3.5862 Y21.8000 F900.00
G1 X2.1103 Y22.0138 F900.00
G1 X1.3655 Y22.0828 F900.00
G1 X0.6207 Y22.1103 F900.00
G1 X-0.1172 Y22.1172 F900.00
G1 X-0.8552 Y22.0897 F900.00
G1 X-2.3310 Y21.9931 F900.00
G1 X-3.8069 Y21.8000 F900.00
G1 X-4.5379 Y21.6897 F900.00
G1 X-5.2690 Y21.5517 F900.00
G1 X-5.9931 Y21.3931 F900.00
G1 X-7.4138 Y20.9448 F900.00
G1 X-8.1103 Y20.6828 F900.00
G1 X-8.7931 Y20.3862 F900.00
G1 X-9.4621 Y20.0690 F900.00
G1 X-10.1172 Y19.7172 F900.00
G1 X-10.7586 Y19.3379 F900.00
G1 X-12.0138 Y18.5379 F900.00
G1 X-13.2138 Y17.6552 F900.00
G1 X-13.8000 Y17.2000 F900.00
G1 X-14.9310 Y16.2345 F900.00
G1 X-15.4759 Y15.7310 F900.00
G1 X-16.0069 Y15.2069 F900.00
G1 X-16.5241 Y14.6690 F900.00
G1 X-17.0276 Y14.1172 F900.00
G1 X-17.9310 Y12.9310 F900.00
G1 X-18.3517 Y12.3172 F900.00
G1 X-18.7379 Y11.6759 F900.00
G1 X-19.1034 Y11.0276 F900.00
G1 X-19.7862 Y9.6966 F900.00
G1 X-20.3793 Y8.3241 F900.00
G1 X-20.6552 Y7.6276 F900.00
G1 X-20.9034 Y6.9241 F900.00
G1 X-21.3448 Y5.4966 F900.00
G1 X-21.7034 Y4.0414 F900.00
G1 X-21.9172 Y2.5655 F900.00
G1 X-21.9862 Y1.8207 F900.00
G1 X-22.0138 Y1.0759 F900.00
G1 X-22.0138 Y0.3310 F900.00
G1 X-22.0345 Y-0.4069 F900.00
G1 X-21.9172 Y-2.6207 F900.00
G1 X-21.7517 Y-4.0966 F900.00
G1 X-21.6414 Y-4.8276 F900.00
G1 X-21.5103 Y-5.5586 F900.00
G1 X-21.1241 Y-6.9931 F900.00
G1 X-20.8966 Y-7.6966 F900.00
G1 X-20.6276 Y-8.3862 F900.00
G1 X-20.3379 Y-9.0690 F900.00
G1 X-20.0207 Y-9.7379 F900.00
G1 X-19.6759 Y-10.3931 F900.00
G1 X-19.3034 Y-11.0345 F900.00
G1 X-18.5172 Y-12.2966 F900.00
G1 X-17.2138 Y-14.1103 F900.00
G1 X-16.2621 Y-15.2552 F900.00
G1 X-15.7655 Y-15.8138 F900.00
G1 X-15.2552 Y-16.3586 F900.00
G1 X-14.7310 Y-16.8897 F900.00
G1 X-13.6069 Y-17.8621 F900.00
G1 X-13.0207 Y-18.3241 F900.00
G1 X-11.7931 Y-19.1655 F900.00
G1 X-10.5310 Y-19.9517 F900.00
G1 X-8.5655 Y-21.0207 F900.00
G1 X-7.2207 Y-21.6552 F900.00
G1 X-6.5379 Y-21.9517 F900.00
G1 X-5.1172 Y-22.4345 F900.00
G1 X-4.4000 Y-22.6414 F900.00
G1 X-3.6690 Y-22.8138 F900.00
G1 X-2.9310 Y-22.9310 F900.00
G1 X-2.1931 Y-23.0276 F900.00
G1 X-0.7034 Y-23.1517 F900.00
G1 X0.0345 Y-23.1724 F900.00
G1 X1.5103 Y-23.1517 F900.00
G1 X3.7241 Y-22.9793 F900.00
G1 X5.9310 Y-22.6690 F900.00
G1 X6.6621 Y-22.5379 F900.00
G1 X8.0966 Y-22.1586 F900.00
G1 X8.8069 Y-21.9379 F900.00
G1 X10.1931 Y-21.4138 F900.00
G1 X10.8759 Y-21.1172 F900.00
G1 X11.5448 Y-20.7931 F900.00
G1 X12.2069 Y-20.4483 F900.00
G1 X12.8552 Y-20.0759 F900.00
G1 X13.4897 Y-19.6828 F900.00
G1 X14.1103 Y-19.2690 F900.00
G1 X14.7103 Y-18.8345 F900.00
G1 X15.2966 Y-18.3793 F900.00
G1 X15.8690 Y-17.9034 F900.00
G1 X16.4207 Y-17.4069 F900.00
G1 X16.9517 Y-16.8897 F900.00
G1 X17.4690 Y-16.3517 F900.00
G1 X17.9655 Y-15.7931 F900.00
G1 X18.9310 Y-14.6621 F900.00
G1 X20.2759 Y-12.8828 F900.00
G1 X21.1103 Y-11.6483 F900.00
G1 X21.8345 Y-10.3379 F900.00
G1 X22.1655 Y-9.6690 F900.00
G1 X22.7448 Y-8.2966 F900.00
G1 X23.0000 Y-7.5931 F900.00
G1 X23.2276 Y-6.8828 F900.00
G1 X23.4345 Y-6.1655 F900.00
G1 X23.6138 Y-5.4414 F900.00
G1 X23.7655 Y-4.7103 F900.00
G1 X23.9379 Y-3.9862 F900.00
G1 X24.3034 Y-1.7724 F900.00
G1 X24.4690 Y-0.2828 F900.00
G1 X24.5310 Y0.4552 F900.00
G1 X24.5310 Y1.9310 F900.00
G1 X24.5034 Y2.6690 F900.00
G1 X24.4414 Y3.4069 F900.00
G1 X24.3586 Y4.1448 F900.00
G1 X24.2483 Y4.8759 F900.00
G1 X24.1103 Y5.6069 F900.00
G1 X23.9448 Y6.3310 F900.00
G1 X23.4759 Y7.7448 F900.00
G1 X22.9310 Y9.1241 F900.00
G1 X22.6207 Y9.8000 F900.00
G1 X21.9448 Y11.1241 F900.00
G1 X21.6207 Y11.7931 F900.00
G1 X20.8966 Y13.0897 F900.00
G1 X20.0966 Y14.3448 F900.00
G1 X19.6759 Y14.9586 F900.00
G1 X19.2345 Y15.5586 F900.00
G1 X18.2621 Y16.6828 F900.00
G1 X17.7448 Y17.2207 F900.00
G1 X16.0966 Y18.7310 F900.00
G1 X14.3379 Y20.1172 F900.00
G1 X13.1172 Y20.9724 F900.00
G1 X12.4897 Y21.3793 F900.00
G1 X11.8552 Y21.7655 F900.00
G1 X10.5172 Y22.4276 F900.00
G1 X9.8345 Y22.7241 F900.00
G1 X9.1310 Y22.9862 F900.00
G1 X8.4207 Y23.2276 F900.00
G1 X7.7310 Y23.5103 F900.00
G1 X6.3103 Y23.9655 F900.00
G1 X4.8621 Y24.3241 F900.00
G1 X4.1310 Y24.4828 F900.00
G1 X2.6552 Y24.7172 F900.00
G1 X1.9103 Y24.8069 F900.00
G1 X1.1655 Y24.8690 F900.00
G1 X-0.3172 Y24.8690 F900.00
G1 X-1.0552 Y24.8276 F900.00
G1 X-1.7931 Y24.8138 F900.00
G1 X-4.0069 Y24.6000 F900.00
G1 X-5.4759 Y24.3793 F900.00
G1 X-6.9172 Y24.0207 F900.00
G1 X-7.6276 Y23.8138 F900.00
G1 X-9.0276 Y23.3034 F900.00
G1 X-9.7103 Y23.0069 F900.00
G1 X-10.3793 Y22.6828 F900.00
G1 X-11.0414 Y22.3379 F900.00
G1 X-11.6828 Y21.9655 F900.00
G1 X-12.9517 Y21.1931 F900.00
G1 X-14.7793 Y19.9103 F900.00
G1 X-15.9448 Y18.9862 F900.00
G1 X-16.5172 Y18.5034 F900.00
G1 X-17.6207 Y17.5034 F900.00
G1 X-18.1517 Y16.9862 F900.00
G1 X-19.1310 Y15.8690 F900.00
G1 X-19.6000 Y15.2897 F900.00
G1 X-20.0414 Y14.6897 F900.00
G1 X-20.4621 Y14.0759 F900.00
G1 X-20.8621 Y13.4483 F900.00
G1 X-21.2345 Y12.8000 F900.00
G1 X-21.5862 Y12.1448 F900.00
G1 X-22.2621 Y10.8138 F900.00
G1 X-23.1517 Y8.7586 F900.00
G1 X-23.6690 Y7.3586 F900.00
G1 X-23.9103 Y6.6483 F900.00
G1 X-24.2828 Y5.2000 F900.00
G1 X-24.4414 Y4.4690 F900.00
G1 X-24.5655 Y3.7310 F900.00
G1 X-24.6690 Y2.9931 F900.00
G1 X-24.7448 Y2.2483 F900.00
G1 X-24.7931 Y1.5034 F900.00
G1 X-24.8207 Y0.7586 F900.00
G1 X-24.8207 Y0.0138 F900.00
G1 X-24.8000 Y-0.7241 F900.00
G1 X-24.7517 Y-1.4621 F900.00
G1 X-24.7241 Y-2.2000 F900.00
G1 X-24.5034 Y-4.4138 F900.00
G1 X-24.4000 Y-5.1517 F900.00
G1 X-24.1103 Y-6.6000 F900.00
G1 X-23.9034 Y-7.3103 F900.00
G1 X-23.6759 Y-8.0207 F900.00
G1 X-23.4207 Y-8.7172 F900.00
G1 X-23.1310 Y-9.4000 F900.00
G1 X-22.5103 Y-10.7517 F900.00
G1 X-21.4414 Y-12.7034 F900.00
G1 X-20.6414 Y-13.9517 F900.00
G1 X-20.2207 Y-14.5655 F900.00
G1 X-18.8828 Y-16.3517 F900.00
G1 X-17.9379 Y-17.5034 F900.00
G1 X-16.9172 Y-18.5862 F900.00
G1 X-16.3862 Y-19.1103 F900.00
G1 X-15.2759 Y-20.1034 F900.00
G1 X-14.0690 Y-20.9724 F900.00
G1 X-12.8207 Y-21.7862 F900.00
G1 X-11.5310 Y-22.5310 F900.00
G1 X-10.2276 Y-23.2552 F900.00
G1 X-8.9034 Y-23.9379 F900.00
G1 X-7.5379 Y-24.5310 F900.00
G1 X-6.8483 Y-24.8069 F900.00
G1 X-5.4138 Y-25.2276 F900.00
G1 X-4.6897 Y-25.4000 F900.00
G1 X-3.2138 Y-25.6483 F900.00
G1 X-1.7241 Y-25.8207 F900.00
G1 X-0.9793 Y-25.8690 F900.00
G1 X0.5034 Y-25.9103 F900.00
G1 X1.9793 Y-25.8690 F900.00
G1 X2.7172 Y-25.8207 F900.00
G1 X3.4552 Y-25.7517 F900.00
G1 X4.1931 Y-25.6621 F900.00
G1 X4.9310 Y-25.6000 F900.00
G1 X6.4000 Y-25.3931 F900.00
G1 X7.8483 Y-25.0759 F900.00
G1 X8.5655 Y-24.8966 F900.00
G1 X9.9862 Y-24.4621 F900.00
G1 X10.6897 Y-24.2138 F900.00
G1 X11.3793 Y-23.9448 F900.00
G1 X12.0621 Y-23.6552 F900.00
G1 X12.7379 Y-23.3448 F900.00
G1 X14.0345 Y-22.6069 F900.00
G1 X14.6621 Y-22.2069 F900.00
G1 X15.2690 Y-21.7724 F900.00
G1 X15.8828 Y-21.3586 F900.00
G1 X17.0414 Y-20.4345 F900.00
G1 X17.6138 Y-19.9586 F900.00
G1 X18.1655 Y-19.4552 F900.00
G1 X18.7034 Y-18.9379 F900.00
G1 X19.2276 Y-18.4069 F900.00
G1 X19.7379 Y-17.8621 F900.00
G1 X20.2345 Y-17.3034 F900.00
G1 X21.2000 Y-16.1724 F900.00
G1 X22.1310 Y-15.0069 F900.00
G1 X22.9793 Y-13.7793 F900.00
G1 X23.3793 Y-13.1517 F900.00
G1 X24.1241 Y-11.8621 F900.00
G1 X24.4690 Y-11.2000 F900.00
G1 X25.1034 Y-9.8483 F900.00
G1 X25.3931 Y-9.1586 F900.00
G1 X25.6621 Y-8.4621 F900.00
G1 X25.9103 Y-7.7586 F900.00
G1 X26.1379 Y-7.0483 F900.00
G1 X26.3448 Y-6.3310 F900.00
G1 X26.5310 Y-5.6069 F900.00
G1 X26.6966 Y-4.8759 F900.00
G1 X26.8414 Y-4.1448 F900.00
G1 X26.9655 Y-3.4069 F900.00
G1 X27.0690 Y-2.6690 F900.00
G1 X27.1517 Y-1.9241 F900.00
G1 X27.2138 Y-1.1793 F900.00
G1 X27.2552 Y-0.4345 F900.00
G1 X27.2759 Y0.3034 F900.00
G1 X27.2759 Y1.0414 F900.00
G1 X27.2552 Y1.7793 F900.00
G1 X27.2138 Y2.5172 F900.00
G1 X27.1517 Y3.2552 F900.00
G1 X27.0690 Y3.9931 F900.00
G1 X26.9655 Y4.7310 F900.00
G1 X26.8414 Y5.4621 F900.00
G1 X26.6966 Y6.1931 F900.00
G1 X26.5310 Y6.9172 F900.00
G1 X26.3448 Y7.6345 F900.00
G1 X26.1379 Y8.3448 F900.00
G1 X25.9103 Y9.0483 F900.00
G1 X25.6621 Y9.7517 F900.00
G1 X25.3931 Y10.4414 F900.00
G1 X24.8000 Y11.8000 F900.00
G1 X24.4759 Y12.4690 F900.00
G1 X24.1310 Y13.1310 F900.00
G1 X23.3862 Y14.4207 F900.00
G1 X22.9862 Y15.0483 F900.00
G1 X22.1310 Y16.2690 F900.00
G1 X21.2069 Y17.4414 F900.00
G1 X20.7241 Y18.0069 F900.00
G1 X20.2207 Y18.5586 F900.00
G1 X19.7034 Y19.0966 F900.00
G1 X19.1724 Y19.6207 F900.00
G1 X18.6276 Y20.1241 F900.00
G1 X17.4966 Y21.0897 F900.00
G1 X16.3379 Y22.0276 F900.00
G1 X15.1448 Y22.9172 F900.00
G1 X13.8966 Y23.7379 F900.00
G1 X13.2621 Y24.1241 F900.00
G1 X12.6138 Y24.4897 F900.00
G1 X11.2552 Y25.1172 F900.00
G1 X9.8690 Y25.6759 F900.00
G1 X9.1655 Y25.9241 F900.00
G1 X7.0276 Y26.6069 F900.00
G1 X5.5931 Y27.0069 F900.00
G1 X4.1310 Y27.2966 F900.00
G1 X3.3931 Y27.4207 F900.00
G1 X1.9034 Y27.5862 F900.00
G1 X1.1586 Y27.6345 F900.00
G1 X0.4138 Y27.6621 F900.00
G1 X-0.3241 Y27.6690 F900.00
G1 X-1.0621 Y27.6552 F900.00
G1 X-1.8000 Y27.6138 F900.00
G1 X-2.5379 Y27.5517 F900.00
G1 X-3.2759 Y27.4690 F900.00
G1 X-4.0138 Y27.4069 F900.00
G1 X-5.4828 Y27.2069 F900.00
G1 X-6.9310 Y26.8966 F900.00
G1 X-7.6483 Y26.7172 F900.00
G1 X-9.0690 Y26.2759 F900.00
G1 X-9.7655 Y26.0276 F900.00
G1 X-10.4552 Y25.7517 F900.00
G1 X-11.1379 Y25.4552 F900.00
G1 X-11.8138 Y25.1379 F900.00
G1 X-12.4759 Y24.8000 F900.00
G1 X-13.1310 Y24.4414 F900.00
G1 X-13.7724 Y24.0621 F900.00
G1 X-15.0138 Y23.2483 F900.00
G1 X-15.6138 Y22.8138 F900.00
G1 X-16.2000 Y22.3586 F900.00
G1 X-16.7724 Y21.8828 F900.00
G1 X-17.3655 Y21.4276 F900.00
G1 X-19.0483 Y19.9655 F900.00
G1 X-20.1310 Y18.9517 F900.00
G1 X-21.1172 Y17.8276 F900.00
G1 X-21.5862 Y17.2483 F900.00
G1 X-22.4483 Y16.0276 F900.00
G1 X-22.8483 Y15.4000 F900.00
G1 X-23.2207 Y14.7517 F900.00
G1 X-23.6138 Y14.1172 F900.00
G1 X-24.6621 Y12.1379 F900.00
G1 X-25.2966 Y10.7862 F900.00
G1 X-25.8759 Y9.4138 F900.00
G1 X-26.4000 Y8.0138 F900.00
G1 X-26.6414 Y7.3103 F900.00
G1 X-27.0000 Y5.8621 F900.00
G1 X-27.1517 Y5.1310 F900.00
G1 X-27.3586 Y3.6483 F900.00
G1 X-27.4966 Y2.1586 F900.00
G1 X-27.5655 Y-0.0690 F900.00
G1 X-27.5241 Y-1.5448 F900.00
G1 X-27.4759 Y-2.2828 F900.00
G1 X-27.3241 Y-3.7586 F900.00
G1 X-27.2276 Y-4.4966 F900.00
G1 X-27.1103 Y-5.2276 F900.00
G1 X-26.8207 Y-6.6828 F900.00
G1 X-26.4621 Y-8.1241 F900.00
G1 X-26.0345 Y-9.5517 F900.00
G1 X-25.4759 Y-10.9310 F900.00
G1 X-25.1655 Y-11.6069 F900.00
G1 X-24.1172 Y-13.5724 F900.00
G1 X-22.9379 Y-15.4621 F900.00
G1 X-22.0828 Y-16.6828 F900.00
G1 X-21.1724 Y-17.8621 F900.00
G1 X-20.2069 Y-19.0000 F900.00
G1 X-19.1931 Y-20.0897 F900.00
G1 X-18.6690 Y-20.6207 F900.00
G1 X-18.1310 Y-21.1379 F900.00
G1 X-17.0207 Y-22.1310 F900.00
G1 X-15.8690 Y-23.0759 F900.00
G1 X-14.6345 Y-23.9103 F900.00
G1 X-13.3724 Y-24.7103 F900.00
G1 X-11.4138 Y-25.8069 F900.00
G1 X-10.0828 Y-26.4759 F900.00
G1 X-8.7241 Y-27.0966 F900.00
G1 X-7.3172 Y-27.5862 F900.00
G1 X-6.6000 Y-27.8000 F900.00
G1 X-5.1448 Y-28.1448 F900.00
G1 X-4.4069 Y-28.2759 F900.00
G1 X-3.6690 Y-28.3793 F900.00
G1 X-2.9241 Y-28.4621 F900.00
G1 X-2.1862 Y-28.5655 F900.00
G1 X0.0414 Y-28.7103 F900.00
G1 X1.5172 Y-28.7379 F900.00
G1 X2.9931 Y-28.7103 F900.00
G1 X4.4690 Y-28.5586 F900.00
G1 X5.2000 Y-28.4483 F900.00
G1 X5.9310 Y-28.3034 F900.00
G1 X6.6621 Y-28.1862 F900.00
G1 X8.8345 Y-27.6828 F900.00
G1 X10.2621 Y-27.2759 F900.00
G1 X11.6759 Y-26.8207 F900.00
G1 X12.3724 Y-26.5724 F900.00
G1 X13.7241 Y-25.9448 F900.00
G1 X14.3862 Y-25.6000 F900.00
G1 X15.6621 Y-24.8276 F900.00
G1 X16.2759 Y-24.4069 F900.00
G1 X16.9034 Y-24.0069 F900.00
G1 X18.6897 Y-22.6621 F900.00
G1 X19.8276 Y-21.7034 F900.00
G1 X20.3862 Y-21.2069 F900.00
G1 X21.4621 Y-20.1793 F900.00
G1 X22.4483 Y-19.0621 F900.00
G1 X23.4000 Y-17.9172 F900.00
G1 X24.7517 Y-16.1379 F900.00
G1 X25.6000 Y-14.9172 F900.00
G1 X26.3448 Y-13.6207 F900.00
G1 X26.6966 Y-12.9586 F900.00
G1 X27.3172 Y-11.6000 F900.00
G1 X27.6000 Y-10.9103 F900.00
G1 X27.9034 Y-10.2276 F900.00
G1 X28.6966 Y-8.1379 F900.00
G1 X28.9379 Y-7.4345 F900.00
G1 X29.3172 Y-5.9862 F900.00
G1 X29.4828 Y-5.2552 F900.00
G1 X29.7310 Y-3.7793 F900.00
G1 X29.8207 Y-3.0345 F900.00
G1 X29.8828 Y-2.2897 F900.00
G1 X29.9241 Y-1.5448 F900.00
G1 X29.9862 Y-0.8000 F900.00
G1 X30.0276 Y1.4207 F900.00
G1 X29.9931 Y2.8966 F900.00
G1 X29.9586 Y3.6345 F900.00
G1 X29.7655 Y5.1103 F900.00
G1 X29.6414 Y5.8414 F900.00
G1 X29.3103 Y7.2897 F900.00
G1 X28.9241 Y8.7241 F900.00
G1 X28.2276 Y10.8414 F900.00
G1 X27.6897 Y12.2276 F900.00
G1 X27.0966 Y13.5862 F900.00
G1 X26.3931 Y14.8966 F900.00
G1 X26.0138 Y15.5379 F900.00
G1 X25.1862 Y16.7724 F900.00
G1 X24.3172 Y17.9793 F900.00
G1 X22.9103 Y19.7172 F900.00
G1 X21.9241 Y20.8276 F900.00
G1 X21.4138 Y21.3724 F900.00
G1 X20.3241 Y22.3793 F900.00
G1 X19.7586 Y22.8621 F900.00
G1 X19.1724 Y23.3172 F900.00
G1 X18.6000 Y23.7931 F900.00
G1 X16.7862 Y25.1103 F900.00
G1 X15.5379 Y25.9310 F900.00
G1 X14.2621 Y26.7034 F900.00
G1 X12.9241 Y27.3793 F900.00
G1 X12.2483 Y27.6897 F900.00
G1 X10.8621 Y28.2414 F900.00
G1 X10.1586 Y28.4828 F900.00
G1 X9.4552 Y28.7448 F900.00
G1 X7.3103 Y29.4000 F900.00
G1 X5.8621 Y29.7724 F900.00
G1 X5.1310 Y29.9448 F900.00
G1 X4.4000 Y30.0966 F900.00
G1 X2.9241 Y30.2966 F900.00
G1 X2.1793 Y30.3655 F900.00
G1 X0.6897 Y30.4207 F900.00
G1 X-0.0483 Y30.4138 F900.00
G1 X-0.7862 Y30.4276 F900.00
G1 X-3.0000 Y30.3241 F900.00
G1 X-4.4759 Y30.1862 F900.00
G1 X-5.9517 Y29.9931 F900.00
G1 X-7.4000 Y29.6828 F900.00
G1 X-8.1172 Y29.5034 F900.00
G1 X-9.5310 Y29.0621 F900.00
G1 X-10.2276 Y28.8069 F900.00
G1 X-12.2897 Y27.9517 F900.00
G1 X-14.2966 Y26.9793 F900.00
G1 X-14.9517 Y26.6276 F900.00
G1 X-16.2069 Y25.8276 F900.00
G1 X-16.8138 Y25.4000 F900.00
G1 X-17.9793 Y24.4759 F900.00
G1 X-18.5793 Y24.0345 F900.00
G1 X-20.2759 Y22.5862 F900.00
G1 X-21.3724 Y21.5724 F900.00
G1 X-22.4414 Y20.5310 F900.00
G1 X-23.4069 Y19.3931 F900.00
G1 X-23.8690 Y18.8069 F900.00
G1 X-24.7172 Y17.5862 F900.00
G1 X-25.5172 Y16.3241 F900.00
G1 X-26.6000 Y14.3655 F900.00
G1 X-27.2483 Y13.0207 F900.00
G1 X-27.5586 Y12.3379 F900.00
G1 X-27.8897 Y11.6690 F900.00
G1 X-28.4966 Y10.3034 F900.00
G1 X-29.0069 Y8.8966 F900.00
G1 X-29.2414 Y8.1862 F900.00
G1 X-29.6483 Y6.7448 F900.00
G1 X-29.8207 Y6.0207 F900.00
G1 X-29.9724 Y5.2897 F900.00
G1 X-30.1448 Y3.8000 F900.00
G1 X-30.1931 Y3.0552 F900.00
G1 X-30.2690 Y2.3103 F900.00
G1 X-30.3241 Y0.0759 F900.00
G1 X-30.2897 Y-1.4000 F900.00
G1 X-30.2552 Y-2.1379 F900.00
G1 X-30.1310 Y-3.6138 F900.00
G1 X-29.9517 Y-5.0897 F900.00
G1 X-29.7172 Y-6.5517 F900.00
G1 X-29.4138 Y-8.0069 F900.00
G1 X-29.2414 Y-8.7310 F900.00
G1 X-28.7862 Y-10.1448 F900.00
G1 X-28.5310 Y-10.8414 F900.00
G1 X-27.9379 Y-12.2000 F900.00
G1 X-27.6069 Y-12.8690 F900.00
G1 X-27.2552 Y-13.5241 F900.00
G1 X-26.9241 Y-14.1931 F900.00
G1 X-25.8000 Y-16.1241 F900.00
G1 X-24.5793 Y-17.9862 F900.00
G1 X-23.7103 Y-19.1931 F900.00
G1 X-23.2621 Y-19.7862 F900.00
G1 X-22.2828 Y-20.9034 F900.00
G1 X-21.7724 Y-21.4483 F900.00
G1 X-21.2414 Y-21.9724 F900.00
G1 X-20.6966 Y-22.4828 F900.00
G1 X-20.1724 Y-23.0138 F900.00
G1 X-18.5172 Y-24.5103 F900.00
G1 X-17.9517 Y-24.9931 F900.00
G1 X-16.7448 Y-25.8759 F900.00
G1 X-16.1310 Y-26.2966 F900.00
G1 X-14.8552 Y-27.0759 F900.00
G1 X-14.2000 Y-27.4345 F900.00
G1 X-13.5586 Y-27.8207 F900.00
G1 X-11.5793 Y-28.8690 F900.00
G1 X-10.9103 Y-29.2000 F900.00
G1 X-9.5379 Y-29.7862 F900.00
G1 X-8.1172 Y-30.2414 F900.00
G1 X-7.4000 Y-30.4414 F900.00
G1 X-6.6690 Y-30.6000 F900.00
G1 X-5.9448 Y-30.7862 F900.00
G1 X-5.2138 Y-30.9310 F900.00
G1 X-3.7379 Y-31.1793 F900.00
G1 X-2.2483 Y-31.3586 F900.00
G1 X-1.5034 Y-31.4276 F900.00
G1 X-0.0138 Y-31.5103 F900.00
G1 X0.7241 Y-31.5310 F900.00
G1 X2.2000 Y-31.5172 F900.00
G1 X3.6759 Y-31.4345 F900.00
G1 X5.1517 Y-31.2828 F900.00
G1 X5.8897 Y-31.1862 F900.00
G1 X7.3517 Y-30.9379 F900.00
G1 X8.8000 Y-30.6207 F900.00
G1 X9.5172 Y-30.4414 F900.00
G1 X10.9448 Y-30.0276 F900.00
G1 X11.6483 Y-29.8000 F900.00
G1 X13.0483 Y-29.2897 F900.00
G1 X14.4207 Y-28.7241 F900.00
G1 X15.7379 Y-28.0345 F900.00
G1 X16.3793 Y-27.6621 F900.00
G1 X17.0069 Y-27.2621 F900.00
G1 X18.2483 Y-26.4345 F900.00
G1 X20.0345 Y-25.0966 F900.00
G1 X21.1724 Y-24.1448 F900.00
G1 X21.7310 Y-23.6552 F900.00
G1 X22.8138 Y-22.6345 F900.00
G1 X23.3448 Y-22.1103 F900.00
G1 X24.3724 Y-21.0276 F900.00
G1 X25.3517 Y-19.9034 F900.00
G1 X26.2897 Y-18.7379 F900.00
G1 X27.1724 Y-17.5379 F900.00
G1 X28.0138 Y-16.3034 F900.00
G1 X28.4138 Y-15.6759 F900.00
G1 X29.1172 Y-14.3517 F900.00
G1 X29.4414 Y-13.6759 F900.00
G1 X29.7310 Y-12.9862 F900.00
G1 X30.0483 Y-12.3103 F900.00
G1 X30.3241 Y-11.6138 F900.00
G1 X30.9034 Y-10.2414 F900.00
G1 X31.1724 Y-9.5448 F900.00
G1 X31.6414 Y-8.1241 F900.00
G1 X31.8552 Y-7.4069 F900.00
G1 X32.0483 Y-6.6828 F900.00
G1 X32.3310 Y-5.2138 F900.00
G1 X32.4345 Y-4.4759 F900.00
G1 X32.6000 Y-2.9862 F900.00
G1 X32.7586 Y-0.0069 F900.00
G1 X32.8207 Y2.2069 F900.00
G1 X32.7655 Y3.6828 F900.00
G1 X32.5793 Y5.1586 F900.00
G1 X32.4552 Y5.8897 F900.00
G1 X32.2897 Y6.6138 F900.00
G1 X32.1517 Y7.3448 F900.00
G1 X31.3655 Y10.2069 F900.00
G1 X30.9241 Y11.6276 F900.00
G1 X30.4000 Y13.0207 F900.00
G1 X30.1172 Y13.7103 F900.00
G1 X29.4966 Y15.0552 F900.00
G1 X28.8069 Y16.3724 F900.00
G1 X28.0000 Y17.6207 F900.00
G1 X27.5655 Y18.2276 F900.00
G1 X27.1517 Y18.8483 F900.00
G1 X25.7931 Y20.6138 F900.00
G1 X24.3448 Y22.3103 F900.00
G1 X23.3310 Y23.4069 F900.00
G1 X22.2414 Y24.4207 F900.00
G1 X21.6759 Y24.9103 F900.00
G1 X20.4966 Y25.8276 F900.00
G1 X19.8897 Y26.2621 F900.00
G1 X19.3034 Y26.7241 F900.00
G1 X17.4621 Y28.0000 F900.00
G1 X16.8414 Y28.4138 F900.00
G1 X15.5517 Y29.1655 F900.00
G1 X14.8966 Y29.5241 F900.00
G1 X13.5586 Y30.1931 F900.00
G1 X12.8759 Y30.5034 F900.00
G1 X11.4897 Y31.0690 F900.00
G1 X10.7862 Y31.3310 F900.00
G1 X9.3724 Y31.8000 F900.00
G1 X7.9310 Y32.2000 F900.00
G1 X6.4759 Y32.5310 F900.00
G1 X5.0069 Y32.7931 F900.00
G1 X4.2690 Y32.8966 F900.00
G1 X2.7793 Y33.0483 F900.00
G1 X1.2897 Y33.1310 F900.00
G1 X-0.1931 Y33.1448 F900.00
G1 X-0.9310 Y33.1724 F900.00
G1 X-3.1448 Y33.1586 F900.00
G1 X-4.6207 Y33.0483 F900.00
G1 X-6.0828 Y32.8138 F900.00
G1 X-7.5448 Y32.5241 F900.00
G1 X-9.7034 Y31.9517 F900.00
G1 X-11.1172 Y31.4966 F900.00
G1 X-11.8138 Y31.2483 F900.00
G1 X-13.1931 Y30.6966 F900.00
G1 X-13.8759 Y30.4000 F900.00
G1 X-14.5517 Y30.0828 F900.00
G1 X-15.8483 Y29.3517 F900.00
G1 X-16.4828 Y28.9586 F900.00
G1 X-17.7034 Y28.1034 F900.00
G1 X-18.3241 Y27.6966 F900.00
G1 X-20.1034 Y26.3517 F900.00
G1 X-21.8207 Y24.9241 F900.00
G1 X-22.9310 Y23.9379 F900.00
G1 X-24.0138 Y22.9172 F900.00
G1 X-25.0207 Y21.8138 F900.00
G1 X-25.5034 Y21.2483 F900.00
G1 X-26.4138 Y20.0690 F900.00
G1 X-27.2552 Y18.8414 F900.00
G1 X-28.0276 Y17.5655 F900.00
G1 X-28.3862 Y16.9103 F900.00
G1 X-28.7241 Y16.2483 F900.00
G1 X-29.0897 Y15.6000 F900.00
G1 X-30.0759 Y13.5931 F900.00
G1 X-31.0000 Y11.5517 F900.00
G1 X-31.2897 Y10.8621 F900.00
G1 X-31.7862 Y9.4552 F900.00
G1 X-32.0138 Y8.7448 F900.00
G1 X-32.4069 Y7.3034 F900.00
G1 X-32.5793 Y6.5793 F900.00
G1 X-32.8069 Y5.1034 F900.00
G1 X-32.9586 Y3.6138 F900.00
G1 X-33.0069 Y2.8690 F900.00
G1 X-33.0828 Y0.6345 F900.00
G1 X-33.0759 Y-1.5793 F900.00
G1 X-32.9931 Y-3.7931 F900.00
G1 X-32.8207 Y-5.2690 F900.00
G1 X-32.7172 Y-6.0069 F900.00
G1 X-32.4414 Y-7.4690 F900.00
G1 X-32.2759 Y-8.1931 F900.00
G1 X-31.8897 Y-9.6276 F900.00
G1 X-31.6690 Y-10.3379 F900.00
G1 X-31.1724 Y-11.7379 F900.00
G1 X-30.6069 Y-13.1103 F900.00
G1 X-30.2966 Y-13.7862 F900.00
G1 X-29.6207 Y-15.1103 F900.00
G1 X-28.8759 Y-16.4000 F900.00
G1 X-28.4828 Y-17.0276 F900.00
G1 X-28.1103 Y-17.6690 F900.00
G1 X-26.9034 Y-19.5448 F900.00
G1 X-26.4828 Y-20.1586 F900.00
G1 X-25.5862 Y-21.3448 F900.00
G1 X-25.1241 Y-21.9241 F900.00
G1 X-24.1517 Y-23.0483 F900.00
G1 X-23.6483 Y-23.6000 F900.00
G1 X-22.6069 Y-24.6621 F900.00
G1 X-21.5172 Y-25.6759 F900.00
G1 X-20.3793 Y-26.6414 F900.00
G1 X-19.2000 Y-27.5517 F900.00
G1 X-17.9793 Y-28.4069 F900.00
G1 X-16.7241 Y-29.2069 F900.00
G1 X-15.4345 Y-29.9517 F900.00
G1 X-14.7793 Y-30.3034 F900.00
G1 X-14.1310 Y-30.6759 F900.00
G1 X-12.1448 Y-31.7034 F900.00
G1 X-10.7724 Y-32.2897 F900.00
G1 X-10.0828 Y-32.5655 F900.00
G1 X-9.3793 Y-32.8138 F900.00
G1 X-7.9379 Y-33.2069 F900.00
G1 X-6.4828 Y-33.5379 F900.00
G1 X-5.7448 Y-33.6759 F900.00
G1 X-4.2690 Y-33.9103 F900.00
G1 X-2.7793 Y-34.0759 F900.00
G1 X-2.0345 Y-34.1379 F900.00
G1 X-1.2897 Y-34.1793 F900.00
G1 X-0.5448 Y-34.2483 F900.00
G1 X0.9310 Y-34.3241 F900.00
G1 X2.4069 Y-34.3241 F900.00
G1 X3.1448 Y-34.3034 F900.00
G1 X4.6207 Y-34.2000 F900.00
G1 X6.0966 Y-34.0345 F900.00
G1 X6.8276 Y-33.9310 F900.00
G1 X8.2897 Y-33.6690 F900.00
G1 X9.7379 Y-33.3379 F900.00
G1 X10.4552 Y-33.1517 F900.00
G1 X11.8828 Y-32.7241 F900.00
G1 X13.2828 Y-32.2414 F900.00
G1 X14.6690 Y-31.6897 F900.00
G1 X16.0276 Y-31.0828 F900.00
G1 X17.3241 Y-30.3517 F900.00
G1 X17.9517 Y-29.9586 F900.00
G1 X18.5655 Y-29.5310 F900.00
G1 X19.1931 Y-29.1379 F900.00
G1 X21.0000 Y-27.8207 F900.00
G1 X22.1517 Y-26.8897 F900.00
G1 X23.2759 Y-25.9103 F900.00
G1 X24.3655 Y-24.8966 F900.00
G1 X25.4207 Y-23.8414 F900.00
G1 X26.4345 Y-22.7448 F900.00
G1 X26.9517 Y-22.2138 F900.00
G1 X27.9517 Y-21.1103 F900.00
G1 X29.3379 Y-19.3517 F900.00
G1 X30.1862 Y-18.1310 F900.00
G1 X30.5931 Y-17.5034 F900.00
G1 X31.3103 Y-16.1931 F900.00
G1 X31.9724 Y-14.8552 F900.00
G1 X32.5655 Y-13.4828 F900.00
G1 X32.8828 Y-12.8069 F900.00
G1 X33.7310 Y-10.7379 F900.00
G1 X34.0000 Y-10.0414 F900.00
G1 X34.4414 Y-8.6138 F900.00
G1 X34.6414 Y-7.8966 F900.00
G1 X34.9655 Y-6.4345 F900.00
G1 X35.0966 Y-5.6966 F900.00
G1 X35.3034 Y-4.2138 F900.00
G1 X35.3724 Y-3.4690 F900.00
G1 X35.4207 Y-2.7241 F900.00
G1 X35.4897 Y-1.9793 F900.00
G1 X35.5724 Y0.2483 F900.00
G1 X35.5586 Y2.4621 F900.00
G1 X35.4414 Y4.6759 F900.00
G1 X35.2483 Y6.1517 F900.00
G1 X35.1310 Y6.8828 F900.00
G1 X34.8207 Y8.3310 F900.00
G1 X34.6345 Y9.0483 F900.00
G1 X34.0000 Y11.1793 F900.00
G1 X33.2759 Y13.2897 F900.00
G1 X32.4690 Y15.3655 F900.00
G1 X31.8138 Y16.7034 F900.00
G1 X31.4690 Y17.3586 F900.00
G1 X30.7034 Y18.6345 F900.00
G1 X30.2966 Y19.2552 F900.00
G1 X29.4276 Y20.4621 F900.00
G1 X28.9655 Y21.0483 F900.00
G1 X28.5241 Y21.6483 F900.00
G1 X27.1034 Y23.3724 F900.00
G1 X25.6207 Y25.0414 F900.00
G1 X25.1103 Y25.5862 F900.00
G1 X24.0138 Y26.5931 F900.00
G1 X23.4483 Y27.0759 F900.00
G1 X22.2690 Y27.9793 F900.00
G1 X21.6966 Y28.4552 F900.00
G1 X19.8966 Y29.7793 F900.00
G1 X18.6690 Y30.6207 F900.00
G1 X17.3862 Y31.3793 F900.00
G1 X16.7310 Y31.7448 F900.00
G1 X15.3931 Y32.4138 F900.00
G1 X14.7103 Y32.7241 F900.00
G1 X12.6345 Y33.5793 F900.00
G1 X10.5310 Y34.3517 F900.00
G1 X9.8207 Y34.5862 F900.00
G1 X8.3724 Y34.9655 F900.00
G1 X7.6414 Y35.1379 F900.00
G1 X6.1724 Y35.4069 F900.00
G1 X5.4345 Y35.5172 F900.00
G1 X4.6966 Y35.6483 F900.00
G1 X3.2069 Y35.8345 F900.00
G1 X1.7172 Y35.9379 F900.00
G1 X0.9724 Y35.9655 F900.00
G1 X0.2276 Y35.9655 F900.00
G1 X-0.5103 Y36.0069 F900.00
G1 X-2.7241 Y36.0138 F900.00
G1 X-3.4621 Y36.0000 F900.00
G1 X-4.9379 Y35.8621 F900.00
G1 X-5.6759 Y35.7724 F900.00
G1 X-7.1379 Y35.5172 F900.00
G1 X-7.8621 Y35.3586 F900.00
G1 X-8.5793 Y35.1793 F900.00
G1 X-9.2966 Y34.9793 F900.00
G1 X-10.0069 Y34.7586 F900.00
G1 X-10.7241 Y34.5586 F900.00
G1 X-12.8345 Y33.8414 F900.00
G1 X-14.2276 Y33.3241 F900.00
G1 X-15.5793 Y32.7034 F900.00
G1 X-16.2414 Y32.3724 F900.00
G1 X-17.5379 Y31.6483 F900.00
G1 X-18.1724 Y31.2621 F900.00
G1 X-19.4069 Y30.4345 F900.00
G1 X-21.1931 Y29.0966 F900.00
G1 X-22.9172 Y27.6759 F900.00
G1 X-24.5793 Y26.1862 F900.00
G1 X-25.6483 Y25.1586 F900.00
G1 X-26.6897 Y24.0966 F900.00
G1 X-27.2000 Y23.5517 F900.00
G1 X-28.1517 Y22.4069 F900.00
G1 X-28.6069 Y21.8207 F900.00
G1 X-29.4621 Y20.6000 F900.00
G1 X-29.8690 Y19.9724 F900.00
G1 X-30.6276 Y18.6828 F900.00
G1 X-30.9793 Y18.0276 F900.00
G1 X-31.3103 Y17.3586 F900.00
G1 X-31.6690 Y16.7034 F900.00
G1 X-32.6345 Y14.6828 F900.00
G1 X-33.5310 Y12.6276 F900.00
G1 X-34.3586 Y10.5448 F900.00
G1 X-34.8069 Y9.1241 F900.00
G1 X-35.0138 Y8.4069 F900.00
G1 X-35.3586 Y6.9517 F900.00
G1 X-35.5034 Y6.2207 F900.00
G1 X-35.6276 Y5.4828 F900.00
G1 X-35.7724 Y3.9931 F900.00
G1 X-35.8552 Y2.5034 F900.00
G1 X-35.8621 Y0.2690 F900.00
G1 X-35.8897 Y-0.4690 F900.00
G1 X-35.8828 Y-1.9448 F900.00
G1 X-35.7931 Y-4.1586 F900.00
G1 X-35.7379 Y-4.8966 F900.00
G1 X-35.5310 Y-6.3655 F900.00
G1 X-35.4000 Y-7.0966 F900.00
G1 X-35.0690 Y-8.5448 F900.00
G1 X-34.8690 Y-9.2621 F900.00
G1 X-34.6483 Y-9.9724 F900.00
G1 X-34.4552 Y-10.6897 F900.00
G1 X-33.7379 Y-12.8000 F900.00
G1 X-33.2069 Y-14.1931 F900.00
G1 X-32.5655 Y-15.5310 F900.00
G1 X-32.2207 Y-16.1931 F900.00
G1 X-31.8483 Y-16.8345 F900.00
G1 X-31.4966 Y-17.4897 F900.00
G1 X-30.3103 Y-19.3793 F900.00
G1 X-29.9310 Y-20.0207 F900.00
G1 X-29.1241 Y-21.2759 F900.00
G1 X-27.8207 Y-23.0897 F900.00
G1 X-26.8966 Y-24.2552 F900.00
G1 X-25.9310 Y-25.3862 F900.00
G1 X-25.4345 Y-25.9379 F900.00
G1 X-24.3586 Y-26.9586 F900.00
G1 X-23.8000 Y-27.4483 F900.00
G1 X-23.2207 Y-27.9172 F900.00
G1 X-22.6621 Y-28.4069 F900.00
G1 X-20.8897 Y-29.7586 F900.00
G1 X-19.0483 Y-31.0207 F900.00
G1 X-17.7862 Y-31.8138 F900.00
G1 X-16.4966 Y-32.5586 F900.00
G1 X-15.1793 Y-33.2621 F900.00
G1 X-13.8345 Y-33.9172 F900.00
G1 X-12.4759 Y-34.5241 F900.00
G1 X-11.0897 Y-35.0897 F900.00
G1 X-9.6897 Y-35.6000 F900.00
G1 X-8.2552 Y-36.0000 F900.00
G1 X-7.5310 Y-36.1793 F900.00
G1 X-6.0621 Y-36.4552 F900.00
G1 X-5.3241 Y-36.5655 F900.00
G1 X-4.5793 Y-36.6483 F900.00
G1 X-3.8414 Y-36.7655 F900.00
G1 X-1.6069 Y-36.9862 F900.00
G1 X0.6207 Y-37.1310 F900.00
G1 X2.0966 Y-37.1793 F900.00
G1 X3.5724 Y-37.1310 F900.00
G1 X4.3103 Y-37.0897 F900.00
G1 X5.7862 Y-36.9310 F900.00
G1 X6.5241 Y-36.8276 F900.00
G1 X7.2552 Y-36.7034 F900.00
G1 X9.4414 Y-36.2621 F900.00
G1 X11.6138 Y-35.7448 F900.00
G1 X12.3310 Y-35.5586 F900.00
G1 X13.7379 Y-35.0966 F900.00
G1 X14.4345 Y-34.8414 F900.00
G1 X15.8069 Y-34.2690 F900.00
G1 X16.4828 Y-33.9586 F900.00
G1 X17.8138 Y-33.2828 F900.00
G1 X19.1034 Y-32.5379 F900.00
G1 X19.7310 Y-32.1448 F900.00
G1 X20.9586 Y-31.3034 F900.00
G1 X21.5586 Y-30.8621 F900.00
G1 X22.1448 Y-30.4000 F900.00
G1 X22.7517 Y-29.9655 F900.00
G1 X24.4966 Y-28.5724 F900.00
G1 X25.6414 Y-27.6138 F900.00
G1 X26.7172 Y-26.5793 F900.00
G1 X27.2414 Y-26.0483 F900.00
G1 X28.2414 Y-24.9379 F900.00
G1 X28.7586 Y-24.4000 F900.00
G1 X30.2345 Y-22.7241 F900.00
G1 X30.7172 Y-22.1517 F900.00
G1 X31.6207 Y-20.9655 F900.00
G1 X32.4759 Y-19.7379 F900.00
G1 X32.8897 Y-19.1172 F900.00
G1 X33.6621 Y-17.8414 F900.00
G1 X34.3103 Y-16.5034 F900.00
G1 X34.6069 Y-15.8207 F900.00
G1 X34.9310 Y-15.1448 F900.00
G1 X35.2138 Y-14.4552 F900.00
G1 X35.8276 Y-13.0966 F900.00
G1 X36.1172 Y-12.4069 F900.00
G1 X36.8690 Y-10.3034 F900.00
G1 X37.3034 Y-8.8690 F900.00
G1 X37.6759 Y-7.4207 F900.00
G1 X37.9172 Y-5.9448 F900.00
G1 X38.1034 Y-4.4621 F900.00
G1 X38.2759 Y-2.2276 F900.00
G1 X38.3034 Y-0.7379 F900.00
G1 X38.3448 Y0.0000 F900.00
G1 X38.3793 Y2.9517 F900.00
G1 X38.2621 Y5.1655 F900.00
G1 X38.0483 Y6.6345 F900.00
G1 X37.9172 Y7.3655 F900.00
G1 X37.5724 Y8.8138 F900.00
G1 X37.3655 Y9.5310 F900.00
G1 X37.1931 Y10.2552 F900.00
G1 X36.5655 Y12.3862 F900.00
G1 X35.8621 Y14.4966 F900.00
G1 X35.6069 Y15.1931 F900.00
G1 X35.0207 Y16.5586 F900.00
G1 X34.7103 Y17.2345 F900.00
G1 X34.0345 Y18.5586 F900.00
G1 X33.6759 Y19.2069 F900.00
G1 X32.9034 Y20.4828 F900.00
G1 X32.0759 Y21.7172 F900.00
G1 X31.1931 Y22.9103 F900.00
G1 X30.2414 Y24.0621 F900.00
G1 X29.7448 Y24.6207 F900.00
G1 X29.2759 Y25.1931 F900.00
G1 X27.7862 Y26.8483 F900.00
G1 X27.2759 Y27.3931 F900.00
G1 X26.2069 Y28.4207 F900.00
G1 X25.6552 Y28.9241 F900.00
G1 X24.5172 Y29.8828 F900.00
G1 X23.3379 Y30.7931 F900.00
G1 X22.1172 Y31.6483 F900.00
G1 X21.4897 Y32.0552 F900.00
G1 X20.8828 Y32.4828 F900.00
G1 X19.6276 Y33.2897 F900.00
G1 X18.3310 Y34.0345 F900.00
G1 X17.6759 Y34.3931 F900.00
G1 X16.3379 Y35.0552 F900.00
G1 X14.9793 Y35.6621 F900.00
G1 X13.5931 Y36.2138 F900.00
G1 X12.1793 Y36.7103 F900.00
G1 X10.7517 Y37.1379 F900.00
G1 X9.3034 Y37.5103 F900.00
G1 X8.5724 Y37.6759 F900.00
G1 X7.8483 Y37.8690 F900.00
G1 X6.3862 Y38.1862 F900.00
G1 X4.1724 Y38.5448 F900.00
G1 X2.6828 Y38.7103 F900.00
G1 X1.9379 Y38.7724 F900.00
G1 X0.4483 Y38.8483 F900.00
G1 X-1.0276 Y38.8621 F900.00
G1 X-2.5034 Y38.8207 F900.00
G1 X-3.9793 Y38.7103 F900.00
G1 X-5.4552 Y38.5448 F900.00
G1 X-6.9172 Y38.3241 F900.00
G1 X-8.3724 Y38.0345 F900.00
G1 X-9.8138 Y37.6897 F900.00
G1 X-11.2414 Y37.2897 F900.00
G1 X-12.6552 Y36.8345 F900.00
G1 X-14.0483 Y36.3172 F900.00
G1 X-15.4207 Y35.7379 F900.00
G1 X-16.7655 Y35.1034 F900.00
G1 X-18.0828 Y34.4138 F900.00
G1 X-19.3724 Y33.6828 F900.00
G1 X-20.6345 Y32.8966 F900.00
G1 X-21.8621 Y32.0552 F900.00
G1 X-23.0552 Y31.1655 F900.00
G1 X-24.2138 Y30.2276 F900.00
G1 X-25.3310 Y29.2414 F900.00
G1 X-25.8759 Y28.7310 F900.00
G1 X-26.4414 Y28.2483 F900.00
G1 X-27.5310 Y27.2345 F900.00
G1 X-29.0966 Y25.6345 F900.00
G1 X-29.5931 Y25.0828 F900.00
G1 X-30.5172 Y23.9103 F900.00
G1 X-30.9586 Y23.3103 F900.00
G1 X-32.1931 Y21.4414 F900.00
G1 X-33.3310 Y19.5103 F900.00
G1 X-34.0345 Y18.1931 F900.00
G1 X-34.6966 Y16.8483 F900.00
G1 X-35.3103 Y15.4897 F900.00
G1 X-35.6000 Y14.8000 F900.00
G1 X-35.9172 Y14.1241 F900.00
G1 X-36.5103 Y12.7517 F900.00
G1 X-37.3103 Y10.6552 F900.00
G1 X-37.5517 Y9.9448 F900.00
G1 X-37.9241 Y8.4966 F900.00
G1 X-38.0828 Y7.7655 F900.00
G1 X-38.3172 Y6.2897 F900.00
G1 X-38.4966 Y4.8000 F900.00
G1 X-38.6483 Y2.5655 F900.00
G1 X-38.6621 Y1.0759 F900.00
G1 X-38.6966 Y0.3310 F900.00
G1 X-38.6897 Y-3.3586 F900.00
G1 X-38.5862 Y-4.8345 F900.00
G1 X-38.5172 Y-5.5724 F900.00
G1 X-38.4207 Y-6.3103 F900.00
G1 X-38.1379 Y-7.7724 F900.00
G1 X-37.7931 Y-9.2207 F900.00
G1 X-37.1655 Y-11.3586 F900.00
G1 X-36.6828 Y-12.7586 F900.00
G1 X-36.1448 Y-14.1448 F900.00
G1 X-35.5517 Y-15.5034 F900.00
G1 X-34.9034 Y-16.8414 F900.00
G1 X-33.8621 Y-18.8207 F900.00
G1 X-32.7793 Y-20.7655 F900.00
G1 X-32.0345 Y-22.0483 F900.00
G1 X-30.7724 Y-23.8897 F900.00
G1 X-29.8552 Y-25.0690 F900.00
G1 X-28.8897 Y-26.2000 F900.00
G1 X-28.3862 Y-26.7517 F900.00
G1 X-27.8690 Y-27.2897 F900.00
G1 X-27.3379 Y-27.8138 F900.00
G1 X-26.8276 Y-28.3517 F900.00
G1 X-25.2138 Y-29.9034 F900.00
G1 X-24.6621 Y-30.4069 F900.00
G1 X-23.4966 Y-31.3379 F900.00
G1 X-22.9034 Y-31.7862 F900.00
G1 X-21.6759 Y-32.6345 F900.00
G1 X-21.0483 Y-33.0345 F900.00
G1 X-20.4345 Y-33.4552 F900.00
G1 X-18.5310 Y-34.6207 F900.00
G1 X-16.5793 Y-35.7241 F900.00
G1 X-15.2621 Y-36.4207 F900.00
G1 X-13.8966 Y-37.0276 F900.00
G1 X-13.2069 Y-37.3172 F900.00
G1 X-11.8069 Y-37.8345 F900.00
G1 X-11.0966 Y-38.0690 F900.00
G1 X-9.6552 Y-38.4828 F900.00
G1 X-8.9310 Y-38.6621 F900.00
G1 X-6.7379 Y-39.1310 F900.00
G1 X-4.5241 Y-39.5241 F900.00
G1 X-3.0483 Y-39.7379 F900.00
G1 X-0.8138 Y-39.9103 F900.00
G1 X0.6690 Y-39.9379 F900.00
G1 X1.4069 Y-39.9310 F900.00
G1 X2.1448 Y-39.9517 F900.00
G1 X4.3586 Y-39.9103 F900.00
G1 X6.5724 Y-39.7103 F900.00
G1 X8.0414 Y-39.4966 F900.00
G1 X8.7724 Y-39.3724 F900.00
G1 X10.2276 Y-39.0690 F900.00
G1 X11.6690 Y-38.7103 F900.00
G1 X13.0966 Y-38.2828 F900.00
G1 X14.4966 Y-37.8000 F900.00
G1 X15.1931 Y-37.5379 F900.00
G1 X16.5655 Y-36.9586 F900.00
G1 X17.9103 Y-36.3241 F900.00
G1 X19.2276 Y-35.6345 F900.00
G1 X20.5172 Y-34.8897 F900.00
G1 X21.7724 Y-34.0897 F900.00
G1 X22.9931 Y-33.2345 F900.00
G1 X23.5862 Y-32.7862 F900.00
G1 X24.1931 Y-32.3586 F900.00
G1 X25.9724 Y-31.0069 F900.00
G1 X26.5586 Y-30.5448 F900.00
G1 X27.6690 Y-29.5586 F900.00
G1 X28.2138 Y-29.0552 F900.00
G1 X29.2690 Y-28.0000 F900.00
G1 X29.7793 Y-27.4552 F900.00
G1 X30.2759 Y-26.8966 F900.00
G1 X30.7931 Y-26.3655 F900.00
G1 X32.2828 Y-24.6966 F900.00
G1 X33.2483 Y-23.5655 F900.00
G1 X34.5517 Y-21.7448 F900.00
G1 X35.3448 Y-20.4828 F900.00
G1 X35.7172 Y-19.8345 F900.00
G1 X36.4069 Y-18.5103 F900.00
G1 X36.7241 Y-17.8345 F900.00
G1 X37.0690 Y-17.1724 F900.00
G1 X38.0000 Y-15.1379 F900.00
G1 X38.8690 Y-13.0759 F900.00
G1 X39.4138 Y-11.6828 F900.00
G1 X39.8621 Y-10.2552 F900.00
G1 X40.0690 Y-9.5379 F900.00
G1 X40.4069 Y-8.0828 F900.00
G1 X40.5517 Y-7.3517 F900.00
G1 X40.7862 Y-5.8759 F900.00
G1 X40.8759 Y-5.1310 F900.00
G1 X40.9448 Y-4.3862 F900.00
G1 X40.9931 Y-3.6414 F900.00
G1 X41.0207 Y-2.8966 F900.00
G1 X41.0759 Y-2.1517 F900.00
G1 X41.1379 Y0.0759 F900.00
G1 X41.1379 Y2.2897 F900.00
G1 X41.0759 Y4.5034 F900.00
G1 X41.0414 Y5.2414 F900.00
G1 X40.8690 Y6.7172 F900.00
G1 X40.7655 Y7.4552 F900.00
G1 X40.4897 Y8.9172 F900.00
G1 X40.3241 Y9.6414 F900.00
G1 X39.9379 Y11.0759 F900.00
G1 X39.7172 Y11.7862 F900.00
G1 X39.5172 Y12.5034 F900.00
G1 X38.8000 Y14.6138 F900.00
G1 X38.0138 Y16.6966 F900.00
G1 X37.4414 Y18.0690 F900.00
G1 X36.7793 Y19.4000 F900.00
G1 X36.4276 Y20.0552 F900.00
G1 X35.6690 Y21.3310 F900.00
G1 X34.8414 Y22.5724 F900.00
G1 X34.4069 Y23.1724 F900.00
G1 X33.9517 Y23.7655 F900.00
G1 X33.5241 Y24.3724 F900.00
G1 X32.1517 Y26.1310 F900.00
G1 X30.2483 Y28.4207 F900.00
G1 X29.2069 Y29.4897 F900.00
G1 X28.6759 Y30.0069 F900.00
G1 X27.5655 Y31.0069 F900.00
G1 X26.4069 Y31.9448 F900.00
G1 X25.2069 Y32.8276 F900.00
G1 X24.6276 Y33.2966 F900.00
G1 X22.8345 Y34.6276 F900.00
G1 X20.9586 Y35.8414 F900.00
G1 X20.3172 Y36.2207 F900.00
G1 X18.9931 Y36.9034 F900.00
G1 X17.6483 Y37.5448 F900.00
G1 X15.5862 Y38.4138 F900.00
G1 X13.4828 Y39.1862 F900.00
G1 X12.0621 Y39.6414 F900.00
G1 X10.6276 Y40.0552 F900.00
G1 X9.1793 Y40.4138 F900.00
G1 X7.7172 Y40.7310 F900.00
G1 X6.2414 Y40.9931 F900.00
G1 X4.7655 Y41.2069 F900.00
G1 X3.2759 Y41.3724 F900.00
G1 X1.7862 Y41.4897 F900.00
G1 X0.2966 Y41.5586 F900.00
G1 X-1.9172 Y41.5655 F900.00
G1 X-3.3931 Y41.5103 F900.00
G1 X-5.6069 Y41.3310 F900.00
G1 X-7.0828 Y41.1517 F900.00
G1 X-8.5448 Y40.9172 F900.00
G1 X-9.9931 Y40.5724 F900.00
G1 X-10.7103 Y40.3793 F900.00
G1 X-11.4207 Y40.1586 F900.00
G1 X-12.1379 Y39.9586 F900.00
G1 X-14.2483 Y39.2414 F900.00
G1 X-16.3241 Y38.4207 F900.00
G1 X-17.6828 Y37.8207 F900.00
G1 X-19.0276 Y37.1793 F900.00
G1 X-19.6897 Y36.8414 F900.00
G1 X-20.9586 Y36.0690 F900.00
G1 X-21.5793 Y35.6621 F900.00
G1 X-22.1862 Y35.2276 F900.00
G1 X-22.8069 Y34.8207 F900.00
G1 X-24.5931 Y33.4759 F900.00
G1 X-26.3103 Y32.0483 F900.00
G1 X-26.8897 Y31.5862 F900.00
G1 X-28.5931 Y30.1448 F900.00
G1 X-30.2138 Y28.6069 F900.00
G1 X-30.7310 Y28.0759 F900.00
G1 X-31.7103 Y26.9517 F900.00
G1 X-32.1793 Y26.3724 F900.00
G1 X-33.0621 Y25.1655 F900.00
G1 X-33.9034 Y23.9379 F900.00
G1 X-35.0897 Y22.0414 F900.00
G1 X-36.1862 Y20.0897 F900.00
G1 X-36.8690 Y18.7586 F900.00
G1 X-37.5103 Y17.4138 F900.00
G1 X-37.8138 Y16.7310 F900.00
G1 X-38.1448 Y16.0621 F900.00
G1 X-39.0828 Y14.0207 F900.00
G1 X-39.9034 Y11.9379 F900.00
G1 X-40.1517 Y11.2345 F900.00
G1 X-40.5310 Y9.7862 F900.00
G1 X-40.6897 Y9.0552 F900.00
G1 X-41.0552 Y6.8414 F900.00
G1 X-41.2966 Y4.6069 F900.00
G1 X-41.3862 Y3.1172 F900.00
G1 X-41.4276 Y1.6276 F900.00
G1 X-41.4759 Y0.8828 F900.00
G1 X-41.5724 Y-2.8138 F900.00
G1 X-41.5172 Y-4.2897 F900.00
G1 X-41.3379 Y-5.7655 F900.00
G1 X-41.2276 Y-6.4966 F900.00
G1 X-41.0828 Y-7.2207 F900.00
G1 X-40.9172 Y-7.9448 F900.00
G1 X-40.7862 Y-8.6759 F900.00
G1 X-40.2414 Y-10.8276 F900.00
G1 X-39.6069 Y-12.9655 F900.00
G1 X-38.8828 Y-15.0690 F900.00
G1 X-38.2828 Y-16.4276 F900.00
G1 X-37.9586 Y-17.0966 F900.00
G1 X-37.6069 Y-17.7517 F900.00
G1 X-37.2897 Y-18.4207 F900.00
G1 X-36.2069 Y-20.3724 F900.00
G1 X-35.1448 Y-22.3379 F900.00
G1 X-33.9862 Y-24.2483 F900.00
G1 X-33.5793 Y-24.8690 F900.00
G1 X-32.6897 Y-26.0621 F900.00
G1 X-32.2207 Y-26.6414 F900.00
G1 X-31.2345 Y-27.7517 F900.00
G1 X-30.7517 Y-28.3172 F900.00
G1 X-29.2069 Y-29.9310 F900.00
G1 X-28.1379 Y-30.9724 F900.00
G1 X-27.0414 Y-31.9793 F900.00
G1 X-25.3448 Y-33.4276 F900.00
G1 X-24.1793 Y-34.3586 F900.00
G1 X-22.9862 Y-35.2483 F900.00
G1 X-21.7310 Y-36.0483 F900.00
G1 X-21.0897 Y-36.4276 F900.00
G1 X-20.4621 Y-36.8276 F900.00
G1 X-18.5172 Y-37.9379 F900.00
G1 X-16.5448 Y-38.9931 F900.00
G1 X-15.1724 Y-39.5931 F900.00
G1 X-14.4828 Y-39.8759 F900.00
G1 X-13.0759 Y-40.3724 F900.00
G1 X-12.3655 Y-40.5931 F900.00
G1 X-11.6483 Y-40.7931 F900.00
G1 X-10.9379 Y-41.0207 F900.00
G1 X-8.7655 Y-41.5862 F900.00
G1 X-6.5724 Y-42.0621 F900.00
G1 X-4.3655 Y-42.4621 F900.00
G1 X-2.8759 Y-42.6138 F900.00
G1 X-2.1310 Y-42.6690 F900.00
G1 X-0.6414 Y-42.7103 F900.00
G1 X0.0966 Y-42.7655 F900.00
G1 X3.7862 Y-42.8276 F900.00
G1 X5.2621 Y-42.7379 F900.00
G1 X6.0000 Y-42.6759 F900.00
G1 X7.4759 Y-42.4897 F900.00
G1 X8.9379 Y-42.2414 F900.00
G1 X9.6621 Y-42.0966 F900.00
G1 X11.1034 Y-41.7517 F900.00
G1 X12.5310 Y-41.3379 F900.00
G1 X13.2483 Y-41.1517 F900.00
G1 X14.6690 Y-40.7103 F900.00
G1 X16.0621 Y-40.2069 F900.00
G1 X16.7517 Y-39.9379 F900.00
G1 X18.1172 Y-39.3517 F900.00
G1 X18.7931 Y-39.0414 F900.00
G1 X20.1241 Y-38.3724 F900.00
G1 X21.4276 Y-37.6552 F900.00
G1 X22.6966 Y-36.8828 F900.00
G1 X23.9310 Y-36.0552 F900.00
G1 X25.1310 Y-35.1724 F900.00
G1 X25.7172 Y-34.7172 F900.00
G1 X26.3310 Y-34.2966 F900.00
G1 X27.5241 Y-33.4069 F900.00
G1 X29.2345 Y-31.9724 F900.00
G1 X30.3310 Y-30.9655 F900.00
G1 X31.3931 Y-29.9241 F900.00
G1 X32.4207 Y-28.8414 F900.00
G1 X33.4069 Y-27.7241 F900.00
G1 X35.3034 Y-25.4276 F900.00
G1 X35.7655 Y-24.8483 F900.00
G1 X37.0621 Y-23.0207 F900.00
G1 X37.8690 Y-21.7655 F900.00
G1 X38.6276 Y-20.4759 F900.00
G1 X39.3379 Y-19.1586 F900.00
G1 X40.0000 Y-17.8138 F900.00
G1 X40.6069 Y-16.4552 F900.00
G1 X41.1586 Y-15.0690 F900.00
G1 X41.6552 Y-13.6621 F900.00
G1 X41.9241 Y-12.9655 F900.00
G1 X42.4069 Y-11.5448 F900.00
G1 X42.8207 Y-10.1103 F900.00
G1 X43.0138 Y-9.3862 F900.00
G1 X43.3448 Y-7.9241 F900.00
G1 X43.4897 Y-7.1931 F900.00
G1 X43.6621 Y-5.7034 F900.00
G1 X43.7172 Y-4.9586 F900.00
G1 X43.7931 Y-4.2138 F900.00
G1 X43.8897 Y-1.9793 F900.00
G1 X43.8966 Y-1.2345 F900.00
G1 X43.9379 Y-0.4897 F900.00
G1 X44.0069 Y3.2000 F900.00
G1 X43.8966 Y5.4138 F900.00
G1 X43.7517 Y6.8897 F900.00
G1 X43.6621 Y7.6276 F900.00
G1 X43.5517 Y8.3586 F900.00
G1 X43.2207 Y9.8069 F900.00
G1 X42.8483 Y11.2414 F900.00
G1 X42.1862 Y13.3724 F900.00
G1 X41.9379 Y14.0759 F900.00
G1 X41.7172 Y14.7862 F900.00
G1 X40.7241 Y17.5862 F900.00
G1 X40.1448 Y18.9586 F900.00
G1 X39.8414 Y19.6345 F900.00
G1 X39.5172 Y20.3034 F900.00
G1 X38.7931 Y21.6000 F900.00
G1 X38.4000 Y22.2345 F900.00
G1 X37.5862 Y23.4759 F900.00
G1 X37.1586 Y24.0828 F900.00
G1 X36.3310 Y25.3241 F900.00
G1 X35.0552 Y27.1517 F900.00
G1 X34.1310 Y28.3172 F900.00
G1 X33.6552 Y28.8897 F900.00
G1 X32.6621 Y30.0000 F900.00
G1 X31.6276 Y31.0690 F900.00
G1 X31.0966 Y31.5862 F900.00
G1 X29.9931 Y32.5862 F900.00
G1 X28.8483 Y33.5379 F900.00
G1 X28.2621 Y34.0000 F900.00
G1 X27.6966 Y34.4897 F900.00
G1 X25.3586 Y36.3448 F900.00
G1 X24.1379 Y37.2000 F900.00
G1 X23.5172 Y37.6138 F900.00
G1 X22.2483 Y38.4000 F900.00
G1 X20.9448 Y39.1310 F900.00
G1 X20.2828 Y39.4828 F900.00
G1 X18.9379 Y40.1310 F900.00
G1 X17.5655 Y40.7379 F900.00
G1 X16.8759 Y41.0207 F900.00
G1 X15.4759 Y41.5310 F900.00
G1 X14.0552 Y41.9862 F900.00
G1 X12.6138 Y42.3862 F900.00
G1 X11.9034 Y42.6138 F900.00
G1 X10.4552 Y43.0000 F900.00
G1 X9.7379 Y43.2069 F900.00
G1 X7.5448 Y43.6759 F900.00
G1 X6.0690 Y43.9310 F900.00
G1 X4.5862 Y44.1379 F900.00
G1 X2.3517 Y44.3517 F900.00
G1 X0.8621 Y44.4345 F900.00
G1 X-0.6207 Y44.4621 F900.00
G1 X-2.0966 Y44.4414 F900.00
G1 X-3.5724 Y44.3724 F900.00
G1 X-5.0483 Y44.2483 F900.00
G1 X-7.2552 Y43.9655 F900.00
G1 X-8.7172 Y43.7172 F900.00
G1 X-10.8966 Y43.2483 F900.00
G1 X-12.3310 Y42.8759 F900.00
G1 X-13.7517 Y42.4483 F900.00
G1 X-15.1586 Y41.9793 F900.00
G1 X-16.5517 Y41.4552 F900.00
G1 X-17.9241 Y40.8897 F900.00
G1 X-19.2759 Y40.2759 F900.00
G1 X-20.6069 Y39.6138 F900.00
G1 X-21.8759 Y38.8414 F900.00
G1 X-22.4966 Y38.4345 F900.00
G1 X-23.1034 Y38.0000 F900.00
G1 X-23.7241 Y37.5862 F900.00
G1 X-25.5034 Y36.2345 F900.00
G1 X-26.1103 Y35.8069 F900.00
G1 X-28.4897 Y34.0276 F900.00
G1 X-30.2000 Y32.5931 F900.00
G1 X-31.2966 Y31.5862 F900.00
G1 X-31.8345 Y31.0690 F900.00
G1 X-32.8759 Y30.0000 F900.00
G1 X-33.8276 Y28.8552 F900.00
G1 X-34.2828 Y28.2621 F900.00
G1 X-34.7103 Y27.6483 F900.00
G1 X-35.1586 Y27.0552 F900.00
G1 X-36.3862 Y25.1793 F900.00
G1 X-36.7724 Y24.5379 F900.00
G1 X-37.1862 Y23.9172 F900.00
G1 X-37.9724 Y22.6483 F900.00
G1 X-39.0621 Y20.6966 F900.00
G1 X-39.7448 Y19.3655 F900.00
G1 X-40.3793 Y18.0207 F900.00
G1 X-40.9724 Y16.6483 F900.00
G1 X-41.2897 Y15.9724 F900.00
G1 X-42.1862 Y13.9241 F900.00
G1 X-42.6966 Y12.5241 F900.00
G1 X-43.0966 Y11.0828 F900.00
G1 X-43.2759 Y10.3586 F900.00
G1 X-43.6759 Y8.1448 F900.00
G1 X-43.9448 Y5.9103 F900.00
G1 X-44.0552 Y4.4207 F900.00
G1 X-44.1379 Y3.6759 F900.00
G1 X-44.4414 Y-0.7793 F900.00
G1 X-44.4552 Y-2.9931 F900.00
G1 X-44.4345 Y-3.7310 F900.00
G1 X-44.2966 Y-5.2069 F900.00
G1 X-44.2000 Y-5.9448 F900.00
G1 X-43.9241 Y-7.4069 F900.00
G1 X-43.7586 Y-8.1310 F900.00
G1 X-43.6207 Y-8.8621 F900.00
G1 X-43.0966 Y-11.0276 F900.00
G1 X-42.4966 Y-13.1724 F900.00
G1 X-41.8345 Y-15.2966 F900.00
G1 X-41.2759 Y-16.6759 F900.00
G1 X-40.9793 Y-17.3586 F900.00
G1 X-39.9862 Y-19.3586 F900.00
G1 X-38.9172 Y-21.3172 F900.00
G1 X-38.5793 Y-21.9793 F900.00
G1 X-37.8690 Y-23.2897 F900.00
G1 X-36.7379 Y-25.2138 F900.00
G1 X-36.3448 Y-25.8414 F900.00
G1 X-35.4897 Y-27.0552 F900.00
G1 X-35.0414 Y-27.6483 F900.00
G1 X-34.0966 Y-28.8000 F900.00
G1 X-33.6069 Y-29.3586 F900.00
G1 X-32.0828 Y-30.9931 F900.00
G1 X-30.4966 Y-32.5724 F900.00
G1 X-28.8621 Y-34.0966 F900.00
G1 X-27.1793 Y-35.5655 F900.00
G1 X-25.4483 Y-36.9793 F900.00
G1 X-24.2207 Y-37.8276 F900.00
G1 X-23.5931 Y-38.2345 F900.00
G1 X-22.3034 Y-38.9862 F900.00
G1 X-21.6759 Y-39.3931 F900.00
G1 X-19.7379 Y-40.5103 F900.00
G1 X-18.4276 Y-41.2276 F900.00
G1 X-17.0759 Y-41.8690 F900.00
G1 X-16.3931 Y-42.1724 F900.00
G1 X-15.0069 Y-42.7310 F900.00
G1 X-13.5931 Y-43.2276 F900.00
G1 X-12.8828 Y-43.4552 F900.00
G1 X-11.4414 Y-43.8552 F900.00
G1 X-9.9862 Y-44.1862 F900.00
G1 X-9.2621 Y-44.3724 F900.00
G1 X-7.0690 Y-44.8483 F900.00
G1 X-5.6069 Y-45.1379 F900.00
G1 X-4.1241 Y-45.3379 F900.00
G1 X-3.3793 Y-45.4207 F900.00
G1 X-1.8897 Y-45.5241 F900.00
G1 X-1.1448 Y-45.5586 F900.00
G1 X-0.4000 Y-45.5724 F900.00
G1 X0.3379 Y-45.6138 F900.00
G1 X3.2897 Y-45.6483 F900.00
G1 X4.7655 Y-45.6345 F900.00
G1 X6.9793 Y-45.4345 F900.00
G1 X8.4414 Y-45.2207 F900.00
G1 X9.1724 Y-45.0897 F900.00
G1 X10.6207 Y-44.7724 F900.00
G1 X11.3379 Y-44.5862 F900.00
G1 X12.0621 Y-44.4207 F900.00
G1 X14.2138 Y-43.8276 F900.00
G1 X16.3448 Y-43.1655 F900.00
G1 X17.7241 Y-42.6207 F900.00
G1 X18.4069 Y-42.3310 F900.00
G1 X19.7517 Y-41.6897 F900.00
G1 X20.4138 Y-41.3448 F900.00
G1 X21.0828 Y-41.0276 F900.00
G1 X23.0483 Y-39.9793 F900.00
G1 X23.6966 Y-39.6138 F900.00
G1 X24.9448 Y-38.8000 F900.00
G1 X26.7862 Y-37.5379 F900.00
G1 X28.5793 Y-36.2069 F900.00
G1 X30.3310 Y-34.8207 F900.00
G1 X31.4690 Y-33.8621 F900.00
G1 X32.5448 Y-32.8276 F900.00
G1 X33.0690 Y-32.2966 F900.00
G1 X34.0690 Y-31.1862 F900.00
G1 X34.5793 Y-30.6414 F900.00
G1 X36.0276 Y-28.9448 F900.00
G1 X37.4276 Y-27.2000 F900.00
G1 X38.7724 Y-25.4069 F900.00
G1 X40.0552 Y-23.5724 F900.00
G1 X40.4690 Y-22.9517 F900.00
G1 X41.2138 Y-21.6552 F900.00
G1 X41.5655 Y-21.0000 F900.00
G1 X42.2207 Y-19.6552 F900.00
G1 X42.8414 Y-18.2966 F900.00
G1 X43.6966 Y-16.2276 F900.00
G1 X44.4828 Y-14.1310 F900.00
G1 X44.9724 Y-12.7172 F900.00
G1 X45.6345 Y-10.5793 F900.00
G1 X45.9724 Y-9.1172 F900.00
G1 X46.1241 Y-8.3862 F900.00
G1 X46.3517 Y-6.9103 F900.00
G1 X46.4414 Y-6.1655 F900.00
G1 X46.5655 Y-4.6759 F900.00
G1 X46.6000 Y-3.9310 F900.00
G1 X46.6621 Y-3.1862 F900.00
G1 X46.7448 Y-0.9517 F900.00
G1 X46.7724 Y2.0069 F900.00
G1 X46.7310 Y4.2207 F900.00
G1 X46.6276 Y6.4345 F900.00
G1 X46.4690 Y7.9103 F900.00
G1 X46.1793 Y9.3655 F900.00
G1 X45.8483 Y10.8138 F900.00
G1 X45.2483 Y12.9586 F900.00
G1 X44.7862 Y14.3724 F900.00
G1 X44.5793 Y15.0828 F900.00
G1 X43.6414 Y17.8966 F900.00
G1 X43.0897 Y19.2759 F900.00
G1 X42.1862 Y21.3103 F900.00
G1 X41.4621 Y22.6069 F900.00
G1 X41.0759 Y23.2414 F900.00
G1 X40.6621 Y23.8621 F900.00
G1 X39.8897 Y25.1310 F900.00
G1 X38.6966 Y27.0138 F900.00
G1 X38.2552 Y27.6138 F900.00
G1 X37.8345 Y28.2276 F900.00
G1 X36.4828 Y30.0000 F900.00
G1 X35.5310 Y31.1448 F900.00
G1 X35.0414 Y31.7034 F900.00
G1 X33.9793 Y32.7517 F900.00
G1 X33.4345 Y33.2621 F900.00
G1 X32.9034 Y33.7862 F900.00
G1 X31.2345 Y35.2828 F900.00
G1 X29.5172 Y36.7172 F900.00
G1 X27.7517 Y38.0828 F900.00
G1 X25.9379 Y39.3862 F900.00
G1 X24.0759 Y40.6276 F900.00
G1 X22.7793 Y41.3655 F900.00
G1 X22.1241 Y41.7172 F900.00
G1 X20.7793 Y42.3586 F900.00
G1 X20.1172 Y42.6966 F900.00
G1 X18.0759 Y43.6276 F900.00
G1 X15.9724 Y44.3793 F900.00
G1 X14.5379 Y44.8000 F900.00
G1 X13.8276 Y45.0345 F900.00
G1 X11.6690 Y45.6414 F900.00
G1 X8.7724 Y46.3655 F900.00
G1 X7.2966 Y46.6276 F900.00
G1 X6.5586 Y46.7379 F900.00
G1 X5.0690 Y46.9103 F900.00
G1 X4.3310 Y47.0138 F900.00
G1 X1.3517 Y47.2966 F900.00
G1 X-0.1310 Y47.3241 F900.00
G1 X-0.8690 Y47.3172 F900.00
G1 X-2.3448 Y47.2414 F900.00
G1 X-3.0828 Y47.2345 F900.00
G1 X-5.2966 Y47.1103 F900.00
G1 X-7.5103 Y46.8552 F900.00
G1 X-9.7034 Y46.4897 F900.00
G1 X-11.1517 Y46.1793 F900.00
G1 X-12.5931 Y45.8207 F900.00
G1 X-14.0207 Y45.4069 F900.00
G1 X-15.4345 Y44.9448 F900.00
G1 X-16.8276 Y44.4345 F900.00
G1 X-18.8828 Y43.5724 F900.00
G1 X-20.2276 Y42.9379 F900.00
G1 X-21.5448 Y42.2552 F900.00
G1 X-23.4759 Y41.1448 F900.00
G1 X-24.7310 Y40.3448 F900.00
G1 X-25.9517 Y39.5034 F900.00
G1 X-27.1448 Y38.6207 F900.00
G1 X-27.7310 Y38.1586 F900.00
G1 X-28.3379 Y37.7241 F900.00
G1 X-31.2759 Y35.4552 F900.00
G1 X-32.4000 Y34.4828 F900.00
G1 X-32.9517 Y33.9862 F900.00
G1 X-34.0276 Y32.9517 F900.00
G1 X-34.5517 Y32.4207 F900.00
G1 X-35.5172 Y31.2897 F900.00
G1 X-35.9793 Y30.7103 F900.00
G1 X-37.2897 Y28.9034 F900.00
G1 X-38.5172 Y27.0276 F900.00
G1 X-38.9379 Y26.4138 F900.00
G1 X-40.1586 Y24.5379 F900.00
G1 X-41.2897 Y22.6000 F900.00
G1 X-42.3448 Y20.6276 F900.00
G1 X-43.3172 Y18.6138 F900.00
G1 X-43.9172 Y17.2483 F900.00
G1 X-44.7448 Y15.1655 F900.00
G1 X-45.2483 Y13.7586 F900.00
G1 X-45.4828 Y13.0483 F900.00
G1 X-45.8552 Y11.6000 F900.00
G1 X-46.0207 Y10.8690 F900.00
G1 X-46.2759 Y9.3931 F900.00
G1 X-46.3724 Y8.6483 F900.00
G1 X-46.4966 Y7.9103 F900.00
G1 X-46.7517 Y5.6759 F900.00
G1 X-46.9379 Y3.4414 F900.00
G1 X-47.0276 Y2.6966 F900.00
G1 X-47.1586 Y1.2069 F900.00
G1 X-47.2897 Y-1.0138 F900.00
G1 X-47.3172 Y-1.7517 F900.00
G1 X-47.2897 Y-3.2276 F900.00
G1 X-47.2552 Y-3.9655 F900.00
G1 X-47.1241 Y-5.4414 F900.00
G1 X-47.0345 Y-6.1793 F900.00
G1 X-46.8000 Y-7.6414 F900.00
G1 X-46.6552 Y-8.3724 F900.00
G1 X-46.1517 Y-10.5379 F900.00
G1 X-45.5724 Y-12.6897 F900.00
G1 X-44.9241 Y-14.8207 F900.00
G1 X-44.2000 Y-16.9241 F900.00
G1 X-43.9448 Y-17.6207 F900.00
G1 X-43.3310 Y-18.9724 F900.00
G1 X-43.0069 Y-19.6414 F900.00
G1 X-42.6552 Y-20.2966 F900.00
G1 X-42.3379 Y-20.9655 F900.00
G1 X-41.2621 Y-22.9172 F900.00
G1 X-40.2276 Y-24.8897 F900.00
G1 X-39.1172 Y-26.8207 F900.00
G1 X-38.7310 Y-27.4552 F900.00
G1 X-37.8621 Y-28.6621 F900.00
G1 X-37.4069 Y-29.2483 F900.00
G1 X-36.4345 Y-30.3724 F900.00
G1 X-35.9655 Y-30.9517 F900.00
G1 X-34.4552 Y-32.5862 F900.00
G1 X-32.8828 Y-34.1724 F900.00
G1 X-31.8000 Y-35.2000 F900.00
G1 X-30.6897 Y-36.2000 F900.00
G1 X-29.5517 Y-37.1655 F900.00
G1 X-29.0000 Y-37.6690 F900.00
G1 X-27.8759 Y-38.6414 F900.00
G1 X-26.6966 Y-39.5517 F900.00
G1 X-25.4483 Y-40.3655 F900.00
G1 X-24.8138 Y-40.7586 F900.00
G1 X-24.2000 Y-41.1793 F900.00
G1 X-22.2828 Y-42.3448 F900.00
G1 X-20.3379 Y-43.4552 F900.00
G1 X-19.6828 Y-43.8138 F900.00
G1 X-18.3310 Y-44.4552 F900.00
G1 X-17.6483 Y-44.7586 F900.00
G1 X-16.2621 Y-45.3034 F900.00
G1 X-15.5586 Y-45.5586 F900.00
G1 X-14.1379 Y-46.0138 F900.00
G1 X-12.6966 Y-46.4000 F900.00
G1 X-11.9655 Y-46.5724 F900.00
G1 X-11.2483 Y-46.7793 F900.00
G1 X-7.6138 Y-47.6552 F900.00
G1 X-6.1379 Y-47.9241 F900.00
G1 X-5.4000 Y-48.0414 F900.00
G1 X-3.9103 Y-48.2276 F900.00
G1 X-2.4207 Y-48.3655 F900.00
G1 X-0.9310 Y-48.4483 F900.00
G1 X0.5517 Y-48.4759 F900.00
G1 X1.2897 Y-48.4690 F900.00
G1 X2.0276 Y-48.4966 F900.00
G1 X4.2414 Y-48.5034 F900.00
G1 X6.4552 Y-48.3862 F900.00
G1 X7.1931 Y-48.3172 F900.00
G1 X8.6552 Y-48.0828 F900.00
G1 X9.3793 Y-47.9310 F900.00
G1 X10.1103 Y-47.8000 F900.00
G1 X12.2828 Y-47.2897 F900.00
G1 X13.7172 Y-46.8966 F900.00
G1 X15.1379 Y-46.4552 F900.00
G1 X16.5448 Y-45.9724 F900.00
G1 X18.6207 Y-45.1724 F900.00
G1 X19.9862 Y-44.5793 F900.00
G1 X21.3310 Y-43.9448 F900.00
G1 X22.0138 Y-43.6483 F900.00
G1 X23.3517 Y-43.0138 F900.00
G1 X25.2966 Y-41.9172 F900.00
G1 X26.5517 Y-41.1103 F900.00
G1 X27.7655 Y-40.2552 F900.00
G1 X28.3862 Y-39.8414 F900.00
G1 X30.1862 Y-38.5172 F900.00
G1 X31.9517 Y-37.1448 F900.00
G1 X32.5310 Y-36.6759 F900.00
G1 X33.6414 Y-35.6759 F900.00
G1 X34.1862 Y-35.1655 F900.00
G1 X35.2276 Y-34.1034 F900.00
G1 X35.7310 Y-33.5586 F900.00
G1 X36.7034 Y-32.4345 F900.00
G1 X37.2069 Y-31.8897 F900.00
G1 X39.6069 Y-29.0276 F900.00
G1 X41.0000 Y-27.2828 F900.00
G1 X42.2621 Y-25.4345 F900.00
G1 X43.0276 Y-24.1586 F900.00
G1 X43.3931 Y-23.5103 F900.00
G1 X44.0759 Y-22.1793 F900.00
G1 X44.3931 Y-21.5034 F900.00
G1 X44.7379 Y-20.8414 F900.00
G1 X45.6828 Y-18.8138 F900.00
G1 X46.5793 Y-16.7655 F900.00
G1 X47.3241 Y-14.6483 F900.00
G1 X47.7448 Y-13.2138 F900.00
G1 X47.9379 Y-12.4897 F900.00
G1 X48.1655 Y-11.7793 F900.00
G1 X48.5655 Y-10.3379 F900.00
G1 X48.8759 Y-8.8759 F900.00
G1 X49.0138 Y-8.1379 F900.00
G1 X49.2276 Y-6.6621 F900.00
G1 X49.3103 Y-5.9172 F900.00
G1 X49.4207 Y-4.4276 F900.00
G1 X49.4552 Y-3.6828 F900.00
G1 X49.5103 Y-2.9379 F900.00
G1 X49.5862 Y-0.7034 F900.00
G1 X49.5931 Y2.2483 F900.00
G1 X49.5310 Y4.4621 F900.00
G1 X49.4069 Y6.6759 F900.00
G1 X49.3517 Y7.4138 F900.00
G1 X49.1379 Y8.8828 F900.00
G1 X49.0138 Y9.6138 F900.00
G1 X48.7034 Y11.0621 F900.00
G1 X48.5172 Y11.7793 F900.00
G1 X48.0897 Y13.2069 F900.00
G1 X47.9034 Y13.9241 F900.00
G1 X47.2483 Y16.0552 F900.00
G1 X46.3034 Y18.8690 F900.00
G1 X45.8000 Y20.2621 F900.00
G1 X45.1931 Y21.6207 F900.00
G1 X44.8759 Y22.2897 F900.00
G1 X44.1793 Y23.6000 F900.00
G1 X43.8069 Y24.2414 F900.00
G1 X43.0069 Y25.5034 F900.00
G1 X42.6414 Y26.1517 F900.00
G1 X41.0414 Y28.6621 F900.00
G1 X39.7379 Y30.4690 F900.00
G1 X38.8138 Y31.6414 F900.00
G1 X37.8483 Y32.7793 F900.00
G1 X36.8483 Y33.8828 F900.00
G1 X35.8069 Y34.9517 F900.00
G1 X34.7310 Y35.9793 F900.00
G1 X33.6207 Y36.9724 F900.00
G1 X32.4690 Y37.9241 F900.00
G1 X31.9103 Y38.4207 F900.00
G1 X29.6069 Y40.3241 F900.00
G1 X27.8000 Y41.6414 F900.00
G1 X26.5586 Y42.4690 F900.00
G1 X25.2828 Y43.2483 F900.00
G1 X23.9793 Y43.9793 F900.00
G1 X22.6483 Y44.6690 F900.00
G1 X21.3034 Y45.3034 F900.00
G1 X19.9310 Y45.8966 F900.00
G1 X18.5379 Y46.4345 F900.00
G1 X17.1241 Y46.9241 F900.00
G1 X15.6966 Y47.3655 F900.00
G1 X14.9931 Y47.6069 F900.00
G1 X11.4138 Y48.6966 F900.00
G1 X9.2276 Y49.2000 F900.00
G1 X7.7517 Y49.4621 F900.00
G1 X6.2690 Y49.6690 F900.00
G1 X5.5241 Y49.7517 F900.00
G1 X4.7793 Y49.8138 F900.00
G1 X4.0414 Y49.9241 F900.00
G1 X2.5517 Y50.0759 F900.00
G1 X0.3172 Y50.1793 F900.00
G1 X-1.1586 Y50.1724 F900.00
G1 X-1.8966 Y50.1517 F900.00
G1 X-3.3724 Y50.0552 F900.00
G1 X-4.1103 Y50.0345 F900.00
G1 X-7.0621 Y49.8345 F900.00
G1 X-7.7931 Y49.7241 F900.00
G1 X-8.5310 Y49.6345 F900.00
G1 X-9.2621 Y49.5172 F900.00
G1 X-10.7172 Y49.2276 F900.00
G1 X-11.4414 Y49.0621 F900.00
G1 X-12.8759 Y48.6759 F900.00
G1 X-13.5862 Y48.4621 F900.00
G1 X-14.3034 Y48.2759 F900.00
G1 X-17.1448 Y47.3931 F900.00
G1 X-19.2207 Y46.5724 F900.00
G1 X-20.5724 Y45.9517 F900.00
G1 X-21.2345 Y45.6207 F900.00
G1 X-22.5379 Y44.9103 F900.00
G1 X-23.1793 Y44.5310 F900.00
G1 X-23.8345 Y44.1793 F900.00
G1 X-25.7586 Y43.0414 F900.00
G1 X-26.3931 Y42.6483 F900.00
G1 X-28.2138 Y41.3655 F900.00
G1 X-29.3862 Y40.4483 F900.00
G1 X-29.9931 Y40.0207 F900.00
G1 X-32.9379 Y37.7448 F900.00
G1 X-34.6414 Y36.3034 F900.00
G1 X-35.1931 Y35.8069 F900.00
G1 X-36.2345 Y34.7448 F900.00
G1 X-36.7379 Y34.1931 F900.00
G1 X-37.6897 Y33.0414 F900.00
G1 X-38.5724 Y31.8414 F900.00
G1 X-39.0345 Y31.2552 F900.00
G1 X-40.3103 Y29.4138 F900.00
G1 X-41.5310 Y27.5379 F900.00
G1 X-42.6897 Y25.6207 F900.00
G1 X-43.0966 Y24.9931 F900.00
G1 X-43.8759 Y23.7241 F900.00
G1 X-44.9793 Y21.7793 F900.00
G1 X-45.3310 Y21.1172 F900.00
G1 X-45.9655 Y19.7655 F900.00
G1 X-46.2621 Y19.0828 F900.00
G1 X-46.8000 Y17.6897 F900.00
G1 X-47.0828 Y17.0000 F900.00
G1 X-47.8483 Y14.8897 F900.00
G1 X-48.0897 Y14.1793 F900.00
G1 X-48.4759 Y12.7379 F900.00
G1 X-48.6483 Y12.0138 F900.00
G1 X-48.9310 Y10.5448 F900.00
G1 X-49.0483 Y9.8069 F900.00
G1 X-49.1448 Y9.0621 F900.00
G1 X-49.2690 Y8.3241 F900.00
G1 X-49.5379 Y6.0897 F900.00
G1 X-49.7448 Y3.8552 F900.00
G1 X-49.8000 Y3.1103 F900.00
G1 X-50.0207 Y0.8759 F900.00
G1 X-50.1517 Y-1.3448 F900.00
G1 X-50.1724 Y-2.0828 F900.00
G1 X-50.1379 Y-3.5586 F900.00
G1 X-50.0966 Y-4.2966 F900.00
G1 X-49.9517 Y-5.7724 F900.00
G1 X-49.8552 Y-6.5103 F900.00
G1 X-49.7379 Y-7.2414 F900.00
G1 X-49.4483 Y-8.6966 F900.00
G1 X-49.2759 Y-9.4207 F900.00
G1 X-49.1310 Y-10.1517 F900.00
G1 X-48.6000 Y-12.3172 F900.00
G1 X-47.8069 Y-15.1793 F900.00
G1 X-47.3724 Y-16.6000 F900.00
G1 X-46.8483 Y-17.9931 F900.00
G1 X-46.5724 Y-18.6828 F900.00
G1 X-45.9586 Y-20.0345 F900.00
G1 X-45.2828 Y-21.3586 F900.00
G1 X-44.9655 Y-22.0276 F900.00
G1 X-43.9103 Y-23.9931 F900.00
G1 X-43.1793 Y-25.2897 F900.00
G1 X-42.8414 Y-25.9517 F900.00
G1 X-42.1310 Y-27.2621 F900.00
G1 X-40.9862 Y-29.1724 F900.00
G1 X-40.1034 Y-30.3724 F900.00
G1 X-39.6483 Y-30.9586 F900.00
G1 X-38.6759 Y-32.0828 F900.00
G1 X-38.2069 Y-32.6621 F900.00
G1 X-36.6966 Y-34.3172 F900.00
G1 X-35.1379 Y-35.9172 F900.00
G1 X-34.0690 Y-36.9586 F900.00
G1 X-32.4207 Y-38.4690 F900.00
G1 X-30.7241 Y-39.9172 F900.00
G1 X-28.9793 Y-41.3103 F900.00
G1 X-27.1862 Y-42.6552 F900.00
G1 X-25.9310 Y-43.4621 F900.00
G1 X-24.6690 Y-44.2483 F900.00
G1 X-22.7448 Y-45.3862 F900.00
G1 X-21.4483 Y-46.1172 F900.00
G1 X-19.4345 Y-47.0897 F900.00
G1 X-18.0552 Y-47.6621 F900.00
G1 X-16.6552 Y-48.1862 F900.00
G1 X-15.2345 Y-48.6552 F900.00
G1 X-13.7931 Y-49.0552 F900.00
G1 X-12.3379 Y-49.4000 F900.00
G1 X-11.6207 Y-49.6000 F900.00
G1 X-7.2414 Y-50.6138 F900.00
G1 X-5.0276 Y-50.9931 F900.00
G1 X-4.2897 Y-51.0897 F900.00
G1 X-2.8000 Y-51.2000 F900.00
G1 X-2.0552 Y-51.2207 F900.00
G1 X-1.3103 Y-51.2828 F900.00
G1 X0.9103 Y-51.3517 F900.00
G1 X3.1241 Y-51.3655 F900.00
G1 X6.0759 Y-51.2897 F900.00
G1 X7.5517 Y-51.1310 F900.00
G1 X8.2897 Y-51.0345 F900.00
G1 X9.7517 Y-50.7793 F900.00
G1 X10.4759 Y-50.6276 F900.00
G1 X11.9172 Y-50.2690 F900.00
G1 X12.6414 Y-50.1172 F900.00
G1 X15.5103 Y-49.3724 F900.00
G1 X16.9172 Y-48.9034 F900.00
G1 X17.6138 Y-48.6483 F900.00
G1 X18.9931 Y-48.0897 F900.00
G1 X19.6690 Y-47.7862 F900.00
G1 X20.3586 Y-47.5172 F900.00
G1 X23.7586 Y-46.0276 F900.00
G1 X25.7310 Y-44.9931 F900.00
G1 X27.0138 Y-44.2414 F900.00
G1 X28.2621 Y-43.4414 F900.00
G1 X29.4828 Y-42.5862 F900.00
G1 X30.6690 Y-41.6897 F900.00
G1 X31.2759 Y-41.2552 F900.00
G1 X34.7862 Y-38.5034 F900.00
G1 X36.4138 Y-36.9724 F900.00
G1 X37.4345 Y-35.8897 F900.00
G1 X37.9310 Y-35.3310 F900.00
G1 X38.4414 Y-34.7862 F900.00
G1 X39.9034 Y-33.0897 F900.00
G1 X41.7793 Y-30.7724 F900.00
G1 X43.1241 Y-28.9862 F900.00
G1 X44.8414 Y-26.5448 F900.00
G1 X45.2552 Y-25.9241 F900.00
G1 X45.9931 Y-24.6207 F900.00
G1 X46.3448 Y-23.9586 F900.00
G1 X46.9862 Y-22.6069 F900.00
G1 X47.3310 Y-21.9448 F900.00
G1 X48.8759 Y-18.5448 F900.00
G1 X49.1724 Y-17.8621 F900.00
G1 X49.9379 Y-15.7586 F900.00
G1 X50.3862 Y-14.3379 F900.00
G1 X50.5931 Y-13.6207 F900.00
G1 X50.9586 Y-12.1724 F900.00
G1 X51.1241 Y-11.4414 F900.00
G1 X51.3172 Y-10.7172 F900.00
G1 X51.6483 Y-9.2552 F900.00
G1 X52.0069 Y-7.0414 F900.00
G1 X52.1655 Y-5.5517 F900.00
G1 X52.2276 Y-4.8069 F900.00
G1 X52.2966 Y-3.3172 F900.00
G1 X52.3517 Y-2.5724 F900.00
G1 X52.4345 Y0.4000 F900.00
G1 X52.4414 Y3.3517 F900.00
G1 X52.3586 Y6.3034 F900.00
G1 X52.1172 Y8.5172 F900.00
G1 X51.8690 Y9.9793 F900.00
G1 X51.7241 Y10.7034 F900.00
G1 X51.3793 Y12.1448 F900.00
G1 X50.9655 Y13.5724 F900.00
G1 X50.7793 Y14.2897 F900.00
G1 X49.6690 Y17.8276 F900.00
G1 X48.7034 Y20.6345 F900.00
G1 X48.4483 Y21.3310 F900.00
G1 X47.8414 Y22.6897 F900.00
G1 X47.5172 Y23.3586 F900.00
G1 X46.8069 Y24.6690 F900.00
G1 X46.4276 Y25.3103 F900.00
G1 X46.0690 Y25.9655 F900.00
G1 X44.9034 Y27.8690 F900.00
G1 X43.6828 Y29.7379 F900.00
G1 X42.4000 Y31.5655 F900.00
G1 X41.0552 Y33.3448 F900.00
G1 X39.6483 Y35.0828 F900.00
G1 X38.6276 Y36.1655 F900.00
G1 X38.1034 Y36.6966 F900.00
G1 X37.0069 Y37.7103 F900.00
G1 X36.4759 Y38.2276 F900.00
G1 X34.8000 Y39.7034 F900.00
G1 X32.5034 Y41.6069 F900.00
G1 X30.1379 Y43.4207 F900.00
G1 X28.3241 Y44.7241 F900.00
G1 X27.0552 Y45.5172 F900.00
G1 X26.4138 Y45.8966 F900.00
G1 X25.1034 Y46.6069 F900.00
G1 X23.7586 Y47.2552 F900.00
G1 X23.0759 Y47.5586 F900.00
G1 X22.4069 Y47.8897 F900.00
G1 X19.6690 Y49.0759 F900.00
G1 X18.9793 Y49.3586 F900.00
G1 X17.5655 Y49.8345 F900.00
G1 X16.1448 Y50.2897 F900.00
G1 X13.2759 Y51.1241 F900.00
G1 X11.1034 Y51.6828 F900.00
G1 X8.9172 Y52.1793 F900.00
G1 X7.4414 Y52.3931 F900.00
G1 X6.6966 Y52.4828 F900.00
G1 X5.9586 Y52.6000 F900.00
G1 X2.9793 Y52.9379 F900.00
G1 X2.2345 Y53.0069 F900.00
G1 X0.7448 Y53.0414 F900.00
G1 X-1.4759 Y53.0483 F900.00
G1 X-3.6897 Y52.9724 F900.00
G1 X-5.9034 Y52.8276 F900.00
G1 X-7.3793 Y52.6966 F900.00
G1 X-8.8552 Y52.5241 F900.00
G1 X-10.3172 Y52.2414 F900.00
G1 X-11.0414 Y52.0828 F900.00
G1 X-12.4759 Y51.6966 F900.00
G1 X-13.2000 Y51.5241 F900.00
G1 X-15.3310 Y50.8828 F900.00
G1 X-16.0483 Y50.6966 F900.00
G1 X-16.7655 Y50.4897 F900.00
G1 X-17.4690 Y50.2483 F900.00
G1 X-18.1793 Y50.0345 F900.00
G1 X-18.8828 Y49.8000 F900.00
G1 X-19.5655 Y49.5103 F900.00
G1 X-20.2552 Y49.2414 F900.00
G1 X-20.9379 Y48.9448 F900.00
G1 X-22.2759 Y48.2897 F900.00
G1 X-23.5793 Y47.5724 F900.00
G1 X-24.2207 Y47.1931 F900.00
G1 X-24.8828 Y46.8483 F900.00
G1 X-27.4552 Y45.3448 F900.00
G1 X-28.6897 Y44.5172 F900.00
G1 X-29.2966 Y44.0897 F900.00
G1 X-30.4828 Y43.1862 F900.00
G1 X-31.0897 Y42.7586 F900.00
G1 X-34.6069 Y40.0138 F900.00
G1 X-36.3379 Y38.6000 F900.00
G1 X-37.9517 Y37.0621 F900.00
G1 X-38.9793 Y35.9793 F900.00
G1 X-39.9586 Y34.8552 F900.00
G1 X-40.8828 Y33.6897 F900.00
G1 X-41.7655 Y32.4828 F900.00
G1 X-42.5931 Y31.2414 F900.00
G1 X-43.3655 Y29.9655 F900.00
G1 X-43.7724 Y29.3379 F900.00
G1 X-44.9172 Y27.4138 F900.00
G1 X-46.1310 Y25.5310 F900.00
G1 X-47.2690 Y23.6069 F900.00
G1 X-47.6345 Y22.9586 F900.00
G1 X-48.2759 Y21.6138 F900.00
G1 X-48.5724 Y20.9310 F900.00
G1 X-48.8414 Y20.2345 F900.00
G1 X-49.1379 Y19.5517 F900.00
G1 X-49.4000 Y18.8552 F900.00
G1 X-50.2345 Y16.7724 F900.00
G1 X-50.9172 Y14.6345 F900.00
G1 X-51.3103 Y13.1931 F900.00
G1 X-51.7931 Y11.0069 F900.00
G1 X-52.0414 Y9.5310 F900.00
G1 X-52.2345 Y8.0483 F900.00
G1 X-52.3724 Y6.5586 F900.00
G1 X-52.4207 Y5.8138 F900.00
G1 X-52.5103 Y5.0690 F900.00
G1 X-52.6276 Y3.5793 F900.00
G1 X-52.9724 Y-0.1379 F900.00
G1 X-53.0483 Y-2.3517 F900.00
G1 X-53.0414 Y-3.0897 F900.00
G1 X-52.9448 Y-4.5655 F900.00
G1 X-52.8690 Y-5.3034 F900.00
G1 X-52.6483 Y-6.7724 F900.00
G1 X-52.5034 Y-7.5034 F900.00
G1 X-52.3931 Y-8.2345 F900.00
G1 X-51.9517 Y-10.4069 F900.00
G1 X-51.4414 Y-12.5793 F900.00
G1 X-50.8621 Y-14.7310 F900.00
G1 X-50.2207 Y-16.8621 F900.00
G1 X-49.5172 Y-18.9724 F900.00
G1 X-48.9448 Y-20.3379 F900.00
G1 X-48.6414 Y-21.0138 F900.00
G1 X-47.9724 Y-22.3379 F900.00
G1 X-47.6552 Y-23.0069 F900.00
G1 X-46.6000 Y-24.9724 F900.00
G1 X-46.2345 Y-25.6207 F900.00
G1 X-45.9034 Y-26.2828 F900.00
G1 X-45.2000 Y-27.5931 F900.00
G1 X-44.8621 Y-28.2552 F900.00
G1 X-44.1172 Y-29.5448 F900.00
G1 X-43.2897 Y-30.7793 F900.00
G1 X-42.8621 Y-31.3862 F900.00
G1 X-41.9448 Y-32.5517 F900.00
G1 X-41.4621 Y-33.1172 F900.00
G1 X-41.0000 Y-33.7034 F900.00
G1 X-39.5310 Y-35.3862 F900.00
G1 X-38.0138 Y-37.0276 F900.00
G1 X-36.9724 Y-38.0966 F900.00
G1 X-34.8207 Y-40.1586 F900.00
G1 X-33.1517 Y-41.6483 F900.00
G1 X-31.4345 Y-43.0759 F900.00
G1 X-30.2690 Y-44.0000 F900.00
G1 X-29.0345 Y-44.8345 F900.00
G1 X-28.4069 Y-45.2345 F900.00
G1 X-27.7931 Y-45.6552 F900.00
G1 X-25.9034 Y-46.8483 F900.00
G1 X-23.3310 Y-48.3655 F900.00
G1 X-21.3241 Y-49.3586 F900.00
G1 X-19.9517 Y-49.9586 F900.00
G1 X-18.5586 Y-50.4966 F900.00
G1 X-17.1448 Y-50.9793 F900.00
G1 X-15.7103 Y-51.3931 F900.00
G1 X-15.0000 Y-51.6207 F900.00
G1 X-12.8483 Y-52.2207 F900.00
G1 X-9.2276 Y-53.1310 F900.00
G1 X-7.7655 Y-53.4621 F900.00
G1 X-5.5517 Y-53.8000 F900.00
G1 X-4.0621 Y-53.9448 F900.00
G1 X-2.5724 Y-54.0276 F900.00
G1 X-1.8276 Y-54.0966 F900.00
G1 X2.6138 Y-54.2897 F900.00
G1 X3.3517 Y-54.3103 F900.00
G1 X5.5655 Y-54.2138 F900.00
G1 X7.0414 Y-54.0690 F900.00
G1 X7.7793 Y-53.9724 F900.00
G1 X9.2414 Y-53.7241 F900.00
G1 X9.9655 Y-53.5724 F900.00
G1 X10.6966 Y-53.4552 F900.00
G1 X12.8690 Y-53.0069 F900.00
G1 X14.3172 Y-52.6759 F900.00
G1 X15.7448 Y-52.2690 F900.00
G1 X16.4552 Y-52.0483 F900.00
G1 X17.8621 Y-51.5586 F900.00
G1 X19.2483 Y-51.0207 F900.00
G1 X19.9310 Y-50.7310 F900.00
G1 X20.6276 Y-50.4828 F900.00
G1 X23.3931 Y-49.3793 F900.00
G1 X24.0621 Y-49.0552 F900.00
G1 X24.7379 Y-48.7517 F900.00
G1 X25.4069 Y-48.4276 F900.00
G1 X26.7172 Y-47.7379 F900.00
G1 X28.0069 Y-47.0069 F900.00
G1 X29.2690 Y-46.2276 F900.00
G1 X30.5034 Y-45.4000 F900.00
G1 X31.7103 Y-44.5310 F900.00
G1 X32.8897 Y-43.6207 F900.00
G1 X33.4690 Y-43.1517 F900.00
G1 X34.0759 Y-42.7241 F900.00
G1 X35.2552 Y-41.8207 F900.00
G1 X36.9586 Y-40.3724 F900.00
G1 X38.0483 Y-39.3655 F900.00
G1 X39.1103 Y-38.3241 F900.00
G1 X40.1379 Y-37.2483 F900.00
G1 X41.1310 Y-36.1379 F900.00
G1 X42.0897 Y-35.0000 F900.00
G1 X43.0069 Y-33.8276 F900.00
G1 X43.4552 Y-33.2276 F900.00
G1 X43.9241 Y-32.6483 F900.00
G1 X46.1724 Y-29.6897 F900.00
G1 X47.4276 Y-27.8345 F900.00
G1 X47.8207 Y-27.2000 F900.00
G1 X48.5241 Y-25.8897 F900.00
G1 X48.8483 Y-25.2207 F900.00
G1 X49.2000 Y-24.5655 F900.00
G1 X50.1586 Y-22.5379 F900.00
G1 X51.0483 Y-20.4828 F900.00
G1 X51.3655 Y-19.8069 F900.00
G1 X51.9655 Y-18.4414 F900.00
G1 X52.7241 Y-16.3379 F900.00
G1 X53.1655 Y-14.9103 F900.00
G1 X53.5517 Y-13.4690 F900.00
G1 X54.2207 Y-10.5586 F900.00
G1 X54.6759 Y-8.3655 F900.00
G1 X54.9517 Y-6.1379 F900.00
G1 X55.2621 Y4.6621 F900.00
G1 X54.9586 Y8.2828 F900.00
G1 X54.8828 Y9.0207 F900.00
G1 X54.7655 Y9.7517 F900.00
G1 X54.4897 Y11.2138 F900.00
G1 X54.3172 Y11.9379 F900.00
G1 X53.9172 Y13.3724 F900.00
G1 X53.7655 Y14.0966 F900.00
G1 X53.3724 Y15.5310 F900.00
G1 X53.2000 Y16.2552 F900.00
G1 X53.0069 Y16.9724 F900.00
G1 X52.7724 Y17.6759 F900.00
G1 X52.5586 Y18.3862 F900.00
G1 X52.3241 Y19.0897 F900.00
G1 X51.8138 Y20.4828 F900.00
G1 X51.2621 Y21.8621 F900.00
G1 X50.6621 Y23.2207 F900.00
G1 X50.0138 Y24.5586 F900.00
G1 X49.3241 Y25.8759 F900.00
G1 X48.5931 Y27.1655 F900.00
G1 X47.8138 Y28.4276 F900.00
G1 X47.4414 Y29.0690 F900.00
G1 X45.4690 Y32.2276 F900.00
G1 X44.1586 Y34.0345 F900.00
G1 X43.2207 Y35.1931 F900.00
G1 X42.7379 Y35.7586 F900.00
G1 X41.7379 Y36.8552 F900.00
G1 X41.2207 Y37.3931 F900.00
G1 X40.7241 Y37.9517 F900.00
G1 X38.6552 Y40.0966 F900.00
G1 X37.5586 Y41.1103 F900.00
G1 X37.0000 Y41.6069 F900.00
G1 X35.8552 Y42.5586 F900.00
G1 X35.2690 Y43.0207 F900.00
G1 X34.7034 Y43.5103 F900.00
G1 X32.3931 Y45.3931 F900.00
G1 X30.5724 Y46.6897 F900.00
G1 X29.3172 Y47.5034 F900.00
G1 X28.0414 Y48.2759 F900.00
G1 X26.7379 Y49.0000 F900.00
G1 X25.4069 Y49.6759 F900.00
G1 X24.0483 Y50.3034 F900.00
G1 X22.6759 Y50.8828 F900.00
G1 X22.0000 Y51.1931 F900.00
G1 X19.9310 Y52.0483 F900.00
G1 X17.8207 Y52.8000 F900.00
G1 X16.4000 Y53.2414 F900.00
G1 X14.2345 Y53.8276 F900.00
G1 X13.5103 Y54.0000 F900.00
G1 X12.7931 Y54.2069 F900.00
G1 X11.3448 Y54.5655 F900.00
G1 X2.8621 Y55.6966 F900.00
G1 X-7.1379 Y55.5448 F900.00
G1 X-10.1379 Y55.1103 F900.00
G1 X-11.4828 Y54.8138 F900.00
G1 X-14.3862 Y54.2069 F900.00
G1 X-16.5310 Y53.6069 F900.00
G1 X-17.9379 Y53.1379 F900.00
G1 X-19.3310 Y52.6207 F900.00
G1 X-20.7034 Y52.0552 F900.00
G1 X-22.0552 Y51.4345 F900.00
G1 X-23.3862 Y50.7655 F900.00
G1 X-24.0621 Y50.4483 F900.00
G1 X-26.7103 Y49.0966 F900.00
G1 X-28.0000 Y48.3517 F900.00
G1 X-28.6345 Y47.9655 F900.00
G1 X-29.8828 Y47.1517 F900.00
G1 X-31.1034 Y46.2966 F900.00
G1 X-32.2966 Y45.4000 F900.00
G1 X-32.8759 Y44.9379 F900.00
G1 X-33.4828 Y44.5034 F900.00
G1 X-37.0138 Y41.7793 F900.00
G1 X-38.7034 Y40.3241 F900.00
G1 X-39.7931 Y39.3103 F900.00
G1 X-40.8069 Y38.2207 F900.00
G1 X-41.2966 Y37.6621 F900.00
G1 X-42.2207 Y36.4966 F900.00
G1 X-42.6966 Y35.9241 F900.00
G1 X-44.0207 Y34.1241 F900.00
G1 X-45.2828 Y32.2759 F900.00
G1 X-46.4621 Y30.3724 F900.00
G1 X-46.8414 Y29.7310 F900.00
G1 X-47.2552 Y29.1103 F900.00
G1 X-48.0414 Y27.8414 F900.00
G1 X-48.8483 Y26.5862 F900.00
G1 X-49.6069 Y25.3034 F900.00
G1 X-50.6207 Y23.3103 F900.00
G1 X-51.2207 Y21.9448 F900.00
G1 X-51.8000 Y20.5724 F900.00
G1 X-52.6138 Y18.4828 F900.00
G1 X-53.3724 Y16.3724 F900.00
G1 X-53.7793 Y14.9379 F900.00
G1 X-53.9655 Y14.2138 F900.00
G1 X-54.2759 Y12.7517 F900.00
G1 X-54.5655 Y11.2828 F900.00
G1 X-54.9379 Y9.0690 F900.00
G1 X-55.0414 Y8.3310 F900.00
G1 X-55.2897 Y3.9172 F900.00
G1 X-55.5862 Y1.2690 F900.00
G1 X-55.5172 Y-6.0483 F900.00
G1 X-54.6069 Y-11.6552 F900.00
G1 X-54.4345 Y-12.3793 F900.00
G1 X-54.2828 Y-13.1034 F900.00
G1 X-54.1103 Y-13.8276 F900.00
G1 X-53.7241 Y-15.2621 F900.00
G1 X-53.2828 Y-16.6828 F900.00
G1 X-52.8000 Y-18.0897 F900.00
G1 X-52.2690 Y-19.4759 F900.00
G1 X-51.6897 Y-20.8483 F900.00
G1 X-51.4207 Y-21.5379 F900.00
G1 X-50.5379 Y-23.5862 F900.00
G1 X-49.5379 Y-25.5793 F900.00
G1 X-48.8138 Y-26.8759 F900.00
G1 X-48.4828 Y-27.5448 F900.00
G1 X-47.0759 Y-30.1655 F900.00
G1 X-46.6828 Y-30.7931 F900.00
G1 X-45.8483 Y-32.0276 F900.00
G1 X-45.4000 Y-32.6207 F900.00
G1 X-44.9724 Y-33.2345 F900.00
G1 X-43.5931 Y-35.0000 F900.00
G1 X-42.1448 Y-36.6966 F900.00
G1 X-41.1448 Y-37.7931 F900.00
G1 X-40.1103 Y-38.8621 F900.00
G1 X-39.6069 Y-39.4138 F900.00
G1 X-37.5448 Y-41.5724 F900.00
G1 X-36.9931 Y-42.0759 F900.00
G1 X-36.4552 Y-42.5931 F900.00
G1 X-35.9034 Y-43.0966 F900.00
G1 X-34.7724 Y-44.0621 F900.00
G1 X-33.6069 Y-44.9931 F900.00
G1 X-32.4138 Y-45.8828 F900.00
G1 X-31.1931 Y-46.7310 F900.00
G1 X-30.5931 Y-47.1724 F900.00
G1 X-28.1310 Y-48.8621 F900.00
G1 X-26.2138 Y-50.0138 F900.00
G1 X-24.9034 Y-50.7310 F900.00
G1 X-23.5724 Y-51.4000 F900.00
G1 X-22.2138 Y-52.0207 F900.00
G1 X-20.8345 Y-52.6000 F900.00
G1 X-18.7310 Y-53.3724 F900.00
G1 X-17.3034 Y-53.8276 F900.00
G1 X-16.5862 Y-54.0345 F900.00
G1 X-15.8759 Y-54.2759 F900.00
G1 X-13.0138 Y-55.1448 F900.00
G1 X-10.6966 Y-55.6552 F900.00
G1 X-8.9310 Y-55.8621 F900.00
G1 X12.6207 Y-55.7448 F900.00
G1 X13.9655 Y-55.5310 F900.00
G1 X17.5793 Y-54.6000 F900.00
G1 X18.2828 Y-54.3655 F900.00
G1 X18.9931 Y-54.1517 F900.00
G1 X19.6966 Y-53.9172 F900.00
G1 X21.0897 Y-53.3931 F900.00
G1 X22.4621 Y-52.8138 F900.00
G1 X23.1517 Y-52.5448 F900.00
G1 X26.5517 Y-51.0552 F900.00
G1 X27.8690 Y-50.3724 F900.00
G1 X28.5241 Y-50.0138 F900.00
G1 X29.8000 Y-49.2552 F900.00
G1 X31.0483 Y-48.4414 F900.00
G1 X32.2690 Y-47.5862 F900.00
G1 X32.8621 Y-47.1379 F900.00
G1 X33.4759 Y-46.7241 F900.00
G1 X36.4828 Y-44.5241 F900.00
G1 X38.2069 Y-43.0966 F900.00
G1 X39.3103 Y-42.1034 F900.00
G1 X39.8552 Y-41.5931 F900.00
G1 X40.9103 Y-40.5379 F900.00
G1 X41.9310 Y-39.4552 F900.00
G1 X42.9172 Y-38.3379 F900.00
G1 X43.8621 Y-37.1862 F900.00
G1 X44.3586 Y-36.6276 F900.00
G1 X46.7448 Y-33.7655 F900.00
G1 X48.0759 Y-31.9724 F900.00
G1 X48.9172 Y-30.7448 F900.00
G1 X49.7241 Y-29.4897 F900.00
G1 X50.4897 Y-28.2138 F900.00
G1 X51.2138 Y-26.9103 F900.00
G1 X51.8966 Y-25.5793 F900.00
G1 X52.5379 Y-24.2345 F900.00
G1 X53.1379 Y-22.8690 F900.00
G1 X53.4207 Y-22.1793 F900.00
G1 X53.7310 Y-21.5034 F900.00
G1 X54.8966 Y-18.7517 F900.00
G1 X55.1310 Y-18.0414 F900.00
G1 X55.1724 Y-17.8207 F900.00
G1 X55.4828 Y-16.7448 F900.00
G1 X55.8345 Y-14.6483 F900.00
G1 X55.7655 Y15.9517 F900.00
G1 X55.5655 Y17.2966 F900.00
G1 X54.9586 Y19.2621 F900.00
G1 X54.7862 Y19.9862 F900.00
G1 X54.5793 Y20.6966 F900.00
G1 X54.1310 Y22.1172 F900.00
G1 X53.6345 Y23.5172 F900.00
G1 X53.0138 Y24.8690 F900.00
G1 X52.3517 Y26.2000 F900.00
G1 X51.2552 Y28.1517 F900.00
G1 X50.8690 Y28.7862 F900.00
G1 X50.5172 Y29.4414 F900.00
G1 X48.6414 Y32.6552 F900.00
G1 X47.3931 Y34.5034 F900.00
G1 X46.5034 Y35.6966 F900.00
G1 X45.5655 Y36.8552 F900.00
G1 X44.5862 Y37.9793 F900.00
G1 X43.5655 Y39.0621 F900.00
G1 X43.0759 Y39.6207 F900.00
G1 X41.0276 Y41.7793 F900.00
G1 X39.9448 Y42.8069 F900.00
G1 X39.3931 Y43.3103 F900.00
G1 X38.2621 Y44.2828 F900.00
G1 X37.0966 Y45.2207 F900.00
G1 X36.5310 Y45.7034 F900.00
G1 X33.0207 Y48.4828 F900.00
G1 X31.1655 Y49.7379 F900.00
G1 X29.8897 Y50.5103 F900.00
G1 X28.5862 Y51.2276 F900.00
G1 X27.2552 Y51.8897 F900.00
G1 X26.5793 Y52.2000 F900.00
G1 X25.9172 Y52.5448 F900.00
G1 X22.5241 Y54.1172 F900.00
G1 X20.4276 Y54.9241 F900.00
G1 X18.0759 Y55.6276 F900.00
G1 X16.5310 Y55.8552 F900.00
G1 X-0.2207 Y55.8552 F900.00
G1 X-0.2207 Y55.8552 F900.00
G1 X-0.5172 Y55.8138 F900.00
G1 X-0.8069 Y55.7379 F900.00
G1 X-1.2138 Y55.5517 F900.00
G0 Z1.0000
G0 X-1.3517 Y55.5103
G0 X-1.6552 Y55.4621
G0 X-2.4414 Y55.4483
G1 Z0.0000 F120.00
G1 X-2.5931 Y55.4483 F900.00
G1 X-3.0483 Y55.4552 F900.00
G1 X-3.3379 Y55.5172 F900.00
G1 X-3.8897 Y55.7448 F900.00
G1 X-4.1862 Y55.8138 F900.00
G1 X-4.4966 Y55.8552 F900.00
G1 X-4.4966 Y55.8552 F900.00
G1 X-17.4276 Y55.7655 F900.00
G1 X-18.7724 Y55.5241 F900.00
G1 X-20.5310 Y54.9379 F900.00
G1 X-23.3172 Y53.9172 F900.00
G1 X-25.3517 Y52.9931 F900.00
G1 X-26.6759 Y52.3103 F900.00
G1 X-27.3241 Y51.9517 F900.00
G1 X-27.9862 Y51.6138 F900.00
G1 X-30.5724 Y50.1517 F900.00
G1 X-31.8069 Y49.3241 F900.00
G1 X-32.4138 Y48.8966 F900.00
G1 X-33.6000 Y47.9931 F900.00
G1 X-34.2000 Y47.5586 F900.00
G1 X-35.9448 Y46.1724 F900.00
G1 X-37.7448 Y44.8483 F900.00
G1 X-39.4966 Y43.4690 F900.00
G1 X-41.1517 Y41.9724 F900.00
G1 X-42.2069 Y40.9172 F900.00
G1 X-42.7172 Y40.3793 F900.00
G1 X-43.7034 Y39.2690 F900.00
G1 X-44.6414 Y38.1172 F900.00
G1 X-45.5379 Y36.9241 F900.00
G1 X-46.3793 Y35.6897 F900.00
G1 X-46.8138 Y35.0828 F900.00
G1 X-48.0483 Y33.2207 F900.00
G1 X-49.6276 Y30.6966 F900.00
G1 X-50.3931 Y29.4138 F900.00
G1 X-51.5931 Y27.5310 F900.00
G1 X-52.6966 Y25.5793 F900.00
G1 X-53.0414 Y24.9172 F900.00
G1 X-53.6621 Y23.5655 F900.00
G1 X-54.2552 Y22.1931 F900.00
G1 X-55.0690 Y20.1034 F900.00
G1 X-55.6897 Y17.4621 F900.00
G1 X-55.8552 Y16.2483 F900.00
G1 X-55.7862 Y-16.6276 F900.00
G1 X-55.5862 Y-17.8690 F900.00
G1 X-54.5241 Y-21.3586 F900.00
G1 X-53.7241 Y-23.4345 F900.00
G1 X-53.1172 Y-24.7931 F900.00
G1 X-52.4552 Y-26.1241 F900.00
G1 X-52.1034 Y-26.7793 F900.00
G1 X-51.7724 Y-27.4483 F900.00
G1 X-50.3379 Y-30.0552 F900.00
G1 X-49.2138 Y-31.9862 F900.00
G1 X-48.0483 Y-33.8828 F900.00
G1 X-46.7241 Y-35.6828 F900.00
G1 X-45.7724 Y-36.8276 F900.00
G1 X-45.2759 Y-37.3862 F900.00
G1 X-44.8000 Y-37.9586 F900.00
G1 X-43.3034 Y-39.6138 F900.00
G1 X-41.2345 Y-41.7586 F900.00
G1 X-40.7379 Y-42.3103 F900.00
G1 X-39.7172 Y-43.3931 F900.00
G1 X-38.1310 Y-44.9517 F900.00
G1 X-37.5862 Y-45.4621 F900.00
G1 X-36.4276 Y-46.4069 F900.00
G1 X-35.2552 Y-47.3172 F900.00
G1 X-33.4414 Y-48.6276 F900.00
G1 X-32.2069 Y-49.4690 F900.00
G1 X-31.6069 Y-49.9103 F900.00
G1 X-29.7724 Y-51.1931 F900.00
G1 X-27.8759 Y-52.3862 F900.00
G1 X-27.2276 Y-52.7586 F900.00
G1 X-25.9034 Y-53.4414 F900.00
G1 X-25.2276 Y-53.7586 F900.00
G1 X-24.5379 Y-54.0552 F900.00
G1 X-23.8690 Y-54.3793 F900.00
G1 X-21.0759 Y-55.5241 F900.00
G1 X-19.6414 Y-55.8483 F900.00
G1 X-10.2621 Y-55.8621 F900.00
G1 X-10.2552 Y-55.8621 F900.00
G1 X-9.9448 Y-55.8276 F900.00
G1 X-9.6483 Y-55.7517 F900.00
G1 X-9.5103 Y-55.6897 F900.00
G1 X-9.3862 Y-55.6138 F900.00
G1 X-9.2897 Y-55.5172 F900.00
G0 Z1.0000
G0 X-9.2207 Y-55.4069
G0 X-9.1793 Y-55.2828
G0 X-9.1655 Y-54.8552
G0 X-16.7517 Y53.9724
G1 Z0.0000 F120.00
G1 X-16.7862 Y54.4483 F900.00
G1 X-16.8483 Y55.1241 F900.00
G1 X-16.8828 Y55.2759 F900.00
G1 X-16.9448 Y55.4000 F900.00
G1 X-17.0345 Y55.5103 F900.00
G1 X-17.1448 Y55.6069 F900.00
G1 X-17.2690 Y55.6828 F900.00
G1 X-17.5448 Y55.7862 F900.00
G1 X-18.0000 Y55.8552 F900.00
G1 X-18.0000 Y55.8552 F900.00
G1 X-23.7931 Y55.8276 F900.00
G1 X-25.0345 Y55.6621 F900.00
G1 X-25.5517 Y55.5172 F900.00
G1 X-26.9655 Y54.9379 F900.00
G1 X-27.6621 Y54.6897 F900.00
G1 X-28.3517 Y54.4207 F900.00
G1 X-30.3655 Y53.4552 F900.00
G1 X-31.0138 Y53.0966 F900.00
G1 X-32.2897 Y52.3241 F900.00
G1 X-32.9103 Y51.9103 F900.00
G1 X-33.5172 Y51.4759 F900.00
G1 X-34.1448 Y51.0759 F900.00
G1 X-35.9517 Y49.7724 F900.00
G1 X-37.7241 Y48.4138 F900.00
G1 X-39.5241 Y47.0897 F900.00
G1 X-41.8414 Y45.2138 F900.00
G1 X-42.9310 Y44.2000 F900.00
G1 X-43.4621 Y43.6759 F900.00
G1 X-44.4897 Y42.5931 F900.00
G1 X-44.9793 Y42.0345 F900.00
G1 X-45.4828 Y41.4897 F900.00
G1 X-46.9310 Y39.7931 F900.00
G1 X-47.4000 Y39.2138 F900.00
G1 X-49.1103 Y36.7724 F900.00
G1 X-50.3379 Y34.8966 F900.00
G1 X-51.1172 Y33.6207 F900.00
G1 X-51.5310 Y33.0000 F900.00
G1 X-53.9448 Y29.2414 F900.00
G1 X-55.3172 Y26.8000 F900.00
G1 X-55.6000 Y26.0690 F900.00
G1 X-55.8552 Y25.0759 F900.00
G1 X-55.8552 Y17.6828 F900.00
G1 X-55.8552 Y17.6828 F900.00
G1 X-55.8138 Y17.3724 F900.00
G1 X-55.7379 Y17.0759 F900.00
G1 X-55.6759 Y16.9379 F900.00
G1 X-55.6069 Y16.8276 F900.00
G1 X-55.5241 Y16.7517 F900.00
G0 Z1.0000
G0 X-55.4345 Y16.7310
G0 X-55.3448 Y16.7586
G0 X-55.1586 Y16.9172
G0 X-24.4759 Y54.5517
G1 Z0.0000 F120.00
G1 X-24.2966 Y54.7793 F900.00
G1 X-23.9655 Y55.2069 F900.00
G1 X-23.9241 Y55.3241 F900.00
G1 X-23.9241 Y55.4276 F900.00
G1 X-23.9724 Y55.5241 F900.00
G1 X-24.0621 Y55.6138 F900.00
G1 X-24.1724 Y55.6828 F900.00
G1 X-24.4414 Y55.7862 F900.00
G1 X-24.8966 Y55.8552 F900.00
G1 X-24.8966 Y55.8552 F900.00
G1 X-29.9655 Y55.8000 F900.00
G1 X-30.7931 Y55.6690 F900.00
G1 X-31.5103 Y55.4207 F900.00
G1 X-32.4759 Y54.9586 F900.00
G1 X-33.1655 Y54.6897 F900.00
G1 X-33.8276 Y54.3586 F900.00
G1 X-35.1241 Y53.6414 F900.00
G1 X-35.7517 Y53.2414 F900.00
G1 X-36.3655 Y52.8207 F900.00
G1 X-37.0000 Y52.4276 F900.00
G1 X-38.8000 Y51.1103 F900.00
G1 X-39.4207 Y50.7034 F900.00
G1 X-40.6414 Y49.8483 F900.00
G1 X-42.4069 Y48.4897 F900.00
G1 X-43.5517 Y47.5379 F900.00
G1 X-44.6276 Y46.5172 F900.00
G1 X-45.6828 Y45.4690 F900.00
G1 X-47.2207 Y43.8414 F900.00
G1 X-48.6897 Y42.1586 F900.00
G1 X-49.6345 Y41.0069 F900.00
G1 X-50.4966 Y39.7931 F900.00
G1 X-51.3379 Y38.5586 F900.00
G1 X-52.5448 Y36.6759 F900.00
G1 X-52.9724 Y36.0621 F900.00
G1 X-55.5586 Y32.1034 F900.00
G1 X-55.7862 Y31.4759 F900.00
G1 X-55.8552 Y31.1448 F900.00
G1 X-55.8552 Y26.0690 F900.00
G1 X-55.8552 Y26.0690 F900.00
G1 X-55.8138 Y25.7586 F900.00
G1 X-55.7379 Y25.4621 F900.00
G1 X-55.6759 Y25.3241 F900.00
G1 X-55.6069 Y25.2138 F900.00
G1 X-55.5241 Y25.1379 F900.00
G0 Z1.0000
G0 X-55.4345 Y25.1172
G0 X-55.3448 Y25.1448
G0 X-55.1517 Y25.2966
G0 X-30.1586 Y54.6276
G1 Z0.0000 F120.00
G1 X-29.9793 Y54.8345 F900.00
G1 X-29.7241 Y55.1586 F900.00
G1 X-29.6621 Y55.2897 F900.00
G1 X-29.6483 Y55.4138 F900.00
G1 X-29.6897 Y55.5172 F900.00
G1 X-29.7724 Y55.6069 F900.00
G1 X-29.8828 Y55.6828 F900.00
