(Exported by FreeCAD)
(Post Processor: PathScripts.post.grbl_post)
(Output Time:2020-12-02 15:45:55.954000)
(begin preamble)
G17 G90
G21
(begin operation: Job3)
(Path: Job3)
(Contour001)
(Compensated Tool Path. Diameter: 6.0)
G0 Z6.0000
G0 X58.0000 Y47.0000
G0 Z-15.5000
G1 X56.5500 Y47.0000 Z-15.5000 F300.00
G1 X56.5500 Y51.3000 Z-15.5000 F1200.00
G3 X51.3000 Y56.5500 Z-15.5000 I-5.2645 J-0.0145 F1200.00
G1 X-51.3000 Y56.5500 Z-15.5000 F1200.00
G3 X-56.5500 Y51.3000 Z-15.5000 I0.0145 J-5.2645 F1200.00
G1 X-56.5500 Y-51.3000 Z-15.5000 F1200.00
G3 X-51.3000 Y-56.5500 Z-15.5000 I5.2645 J0.0145 F1200.00
G1 X51.3000 Y-56.5500 Z-15.5000 F1200.00
G3 X56.5500 Y-51.3000 Z-15.5000 I-0.0145 J5.2645 F1200.00
G1 X56.5500 Y47.0000 Z-15.5000 F1200.00
G0 Z6.0000
(Contour002)
(Compensated Tool Path. Diameter: 6.0)
G0 Z6.0000
G0 X58.0000 Y47.0000
G0 Z-15.5000
G1 X56.3000 Y47.0000 Z-15.5000 F300.00
G1 X56.3000 Y51.3000 Z-15.5000 F1200.00
G3 X51.3000 Y56.3000 Z-15.5000 I-5.0141 J-0.0141 F1200.00
G1 X-51.3000 Y56.3000 Z-15.5000 F1200.00
G3 X-56.3000 Y51.3000 Z-15.5000 I0.0141 J-5.0141 F1200.00
G1 X-56.3000 Y-51.3000 Z-15.5000 F1200.00
G3 X-51.3000 Y-56.3000 Z-15.5000 I5.0141 J0.0141 F1200.00
G1 X51.3000 Y-56.3000 Z-15.5000 F1200.00
G3 X56.3000 Y-51.3000 Z-15.5000 I-0.0141 J5.0141 F1200.00
G1 X56.3000 Y47.0000 Z-15.5000 F1200.00
G0 Z6.0000
(Contour003)
(Compensated Tool Path. Diameter: 6.0)
G0 Z6.0000
G0 X58.0000 Y47.0000
G0 Z-15.5000
G1 X56.1000 Y47.0000 Z-15.5000 F300.00
G1 X56.1000 Y51.3000 Z-15.5000 F1200.00
G3 X51.3000 Y56.1000 Z-15.5000 I-4.8137 J-0.0137 F1200.00
G1 X-51.3000 Y56.1000 Z-15.5000 F1200.00
G3 X-56.1000 Y51.3000 Z-15.5000 I0.0137 J-4.8137 F1200.00
G1 X-56.1000 Y-51.3000 Z-15.5000 F1200.00
G3 X-51.3000 Y-56.1000 Z-15.5000 I4.8137 J0.0137 F1200.00
G1 X51.3000 Y-56.1000 Z-15.5000 F1200.00
G3 X56.1000 Y-51.3000 Z-15.5000 I-0.0137 J4.8137 F1200.00
G1 X56.1000 Y47.0000 Z-15.5000 F1200.00
G0 Z6.0000
(Contour004)
(Compensated Tool Path. Diameter: 6.0)
G0 Z6.0000
G0 X58.0000 Y47.0000
G0 Z-15.5000
G1 X55.9500 Y47.0000 Z-15.5000 F300.00
G1 X55.9500 Y51.3000 Z-15.5000 F1200.00
G3 X51.3000 Y55.9500 Z-15.5000 I-4.6634 J-0.0134 F1200.00
G1 X-51.3000 Y55.9500 Z-15.5000 F1200.00
G3 X-55.9500 Y51.3000 Z-15.5000 I0.0134 J-4.6634 F1200.00
G1 X-55.9500 Y-51.3000 Z-15.5000 F1200.00
G3 X-51.3000 Y-55.9500 Z-15.5000 I4.6634 J0.0134 F1200.00
G1 X51.3000 Y-55.9500 Z-15.5000 F1200.00
G3 X55.9500 Y-51.3000 Z-15.5000 I-0.0134 J4.6634 F1200.00
G1 X55.9500 Y47.0000 Z-15.5000 F1200.00
G0 Z6.0000
(finish operation: Job3)
(begin postamble)
M5
G17 G90
; M2
