(Exported by FreeCAD)
(Post Processor: grbl_post)
(Output Time:2021-03-31 09:29:39.536979)
(Begin preamble)
G17 G90
G21
(Begin operation: Fixture)
(Path: Fixture)
G54
(Finish operation: Fixture)
(Begin operation: 6mm_Endmill_Slow)
(Path: 6mm_Endmill_Slow)
(6mm_Endmill_Slow)
(Begin toolchange)
( M6 T1.0 )
M3 S5000.0
(Finish operation: 6mm_Endmill_Slow)
(Begin operation: Profile)
(Path: Profile)
(Profile)
(Compensated Tool Path. Diameter: 6.0)
G0 Z6.000
G0 X44.776 Y44.775
G0 Z4.000
G1 X44.776 Y44.775 Z0.000 F150.000
G2 X44.512 Y43.554 Z0.000 I-0.526 J-0.526 K0.000 F750.000
G1 X44.411 Y43.524 Z0.000 F750.000
G2 X44.085 Y44.974 Z0.000 I-0.160 J0.726 K0.000 F750.000
G2 X44.776 Y44.775 Z0.000 I0.166 J-0.725 K0.000 F750.000
G0 Z6.000
G0 X10.500 Y10.500 Z6.000
G0 X10.500 Y10.500 Z4.000
G1 X10.500 Y10.500 Z0.000 F150.000
G1 X10.500 Y-10.500 Z0.000 F750.000
G1 X-10.500 Y-10.500 Z0.000 F750.000
G1 X-10.500 Y10.500 Z0.000 F750.000
G1 X10.500 Y10.500 Z0.000 F750.000
G0 Z6.000
G0 X-43.618 Y43.860 Z6.000
G0 X-43.618 Y43.860 Z4.000
G1 X-43.618 Y43.860 Z0.000 F150.000
G2 X-44.301 Y43.508 Z0.000 I-0.633 J0.390 K0.000 F750.000
G2 X-44.992 Y44.303 Z0.000 I0.050 J0.742 K0.000 F750.000
G2 X-44.194 Y44.991 Z0.000 I0.741 J-0.053 K0.000 F750.000
G2 X-43.618 Y43.860 Z0.000 I-0.056 J-0.741 K0.000 F750.000
G0 Z6.000
G0 X-44.244 Y-43.507 Z6.000
G0 X-44.244 Y-43.507 Z4.000
G1 X-44.244 Y-43.507 Z0.000 F150.000
G2 X-43.988 Y-44.946 Z0.000 I-0.005 J-0.743 K0.000 F750.000
G1 X-44.089 Y-44.976 Z0.000 F750.000
G2 X-44.415 Y-43.526 Z0.000 I-0.160 J0.726 K0.000 F750.000
G2 X-44.244 Y-43.507 Z0.000 I0.166 J-0.725 K0.000 F750.000
G0 Z6.000
G0 X43.507 Y-44.244 Z6.000
G0 X43.507 Y-44.244 Z4.000
G1 X43.507 Y-44.244 Z0.000 F150.000
G2 X44.085 Y-43.526 Z0.000 I0.743 J-0.006 K0.000 F750.000
G2 X44.512 Y-44.946 Z0.000 I0.166 J-0.725 K0.000 F750.000
G1 X44.411 Y-44.976 Z0.000 F750.000
G2 X43.507 Y-44.244 Z0.000 I-0.160 J0.726 K0.000 F750.000
G0 Z6.000
G0 Z6.000
(Finish operation: Profile)
(Begin operation: Profile001)
(Path: Profile001)
(Profile001)
(Compensated Tool Path. Diameter: 6.0)
G0 Z6.000
G0 X54.478 Y54.478
G0 Z4.000
G1 X54.478 Y54.478 Z0.000 F150.000
G2 X55.800 Y51.300 Z0.000 I-3.191 J-3.191 K0.000 F750.000
G1 X55.800 Y-51.300 Z0.000 F750.000
G2 X51.300 Y-55.800 Z0.000 I-4.513 J0.013 K0.000 F750.000
G1 X-51.300 Y-55.800 Z0.000 F750.000
G2 X-55.800 Y-51.300 Z0.000 I0.013 J4.513 K0.000 F750.000
G1 X-55.800 Y51.300 Z0.000 F750.000
G2 X-51.300 Y55.800 Z0.000 I4.513 J-0.013 K0.000 F750.000
G1 X51.300 Y55.800 Z0.000 F750.000
G2 X54.478 Y54.478 Z0.000 I-0.013 J-4.513 K0.000 F750.000
G0 Z6.000
G0 Z6.000
(Finish operation: Profile001)
(Begin postamble)
M5
G17 G90
M2
